!!!!SEGMENT: pl-cz--iii-624--007_raszek-wacllaw--missa-in-f-et-resurrexit.krn
!!!cenid: 17xx:1065
!!!COM: Raszek, Wacław
!!!COM-rismid: pe30020314
!!!CDT: >1848->1848
!!!CNT:
!!!OPR: Missa in F
!!!OTL: Et resurrexit
!!!OMV: 007
!!!PDT:
!!!AGN: Sacred; Mass
!!!SMS-siglum: PL-CZ
!!!SMS-shelfmark: III-624
!!!SMS-shelfwork: 001-007 M
!!!SMS-variant:
!!!SMS-altvar:
!!!NIFC-rismid: 300001049 !!!URL-scan: http://repozytorium.nifc.pl/skany/pl-cz-nut--iii-624
!!!ONB-nifc: UWAGA: części Mszy: Kyrie, Gloria, Domine Deus, Cum sancto spiritu, Credo, Et incarnatus, Et resurrexit, Sanctus, Benedictus, Agnus Dei, Dona nobis. Uwaga: partia violino principale tylko w cz. Benedictus
!!!key: F
**kern	**fba	**dynam	**kern	**dynam	**kern	**dynam	**kern	**dynam	**kern	**kern	**text	**dynam	**kern	**text	**dynam	**kern	**text	**dynam	**kern	**text	**dynam	**kern	**kern	**kern	**kern
*	*	*	*group4	*	*group4	*	*group4	*	*group4	*group3	*	*	*group3	*	*	*group3	*	*	*group3	*	*	*group2	*group2	*group1	*group1
*part13	*	*part13	*part12	*part12	*part11	*part11	*part10	*part10	*part9	*part8	*part8	*part8	*part7	*part7	*part7	*part6	*part6	*part6	*part5	*part5	*part5	*part4	*part3	*part2	*part1
*staff13	*	*	*staff12	*	*staff11	*	*staff10	*	*staff9	*staff8	*staff8	*	*staff7	*staff7	*	*staff6	*staff6	*	*staff5	*staff5	*	*staff4	*staff3	*staff2	*staff1
*I"Organo.	*	*	*I"Alto Viola.	*	*I"Violino Secondo.	*	*I"Violino Primo	*	*I"Violino Principale	*I"Basso.	*	*	*I"Tenore.	*	*	*I"Alto.	*	*	*I"Canto.	*	*	*I"Cornu 2do in F.	*I"Cornu Primo. in F.	*I"Flauto 2do	*I"Flauto Primo.
*I'org	*	*	*I'a-vla	*	*I'vl 2	*	*I'vl 1	*	*I'vl princ	*I'B	*	*	*I'T	*	*	*I'A	*	*	*I'S	*	*	*I'cor 2 in F	*I'cor 1 in F	*I'fl 2	*I'fl 1
*Iorgan	*	*	*Iviola	*	*Ivioln	*	*Ivioln	*	*Ivioln	*Ibass	*	*	*Itenor	*	*	*Ialto	*	*	*Isoprn	*	*	*Icor	*Icor	*Iflt	*Iflt
*ICklav	*	*	*ICstr	*	*ICstr	*	*ICstr	*	*ICstr	*ICvox	*	*	*ICvox	*	*	*ICvox	*	*	*ICvox	*	*	*ICbras	*ICbras	*ICww	*ICww
*IGcont	*	*	*	*	*	*	*	*	*	*IGcoro	*	*	*IGcoro	*	*	*IGcoro	*	*	*IGcoro	*	*	*	*	*	*
*clefF4	*	*	*clefC3	*	*clefG2	*	*clefG2	*	*clefG2	*clefF4	*	*	*clefC4	*	*	*clefC3	*	*	*clefC1	*	*	*clefG2	*clefG2	*clefG2	*clefG2
*	*	*	*	*	*	*	*	*	*	*	*	*	*	*	*	*	*	*	*	*	*	*ITrd4c7	*ITrd4c7	*	*
*k[b-]	*	*	*k[b-]	*	*k[b-]	*	*k[b-]	*	*k[b-]	*k[b-]	*	*	*k[b-]	*	*	*k[b-]	*	*	*k[b-]	*	*	*k[b-]	*k[b-]	*k[b-]	*k[b-]
*F:	*	*	*F:	*	*F:	*	*F:	*	*F:	*F:	*	*	*F:	*	*	*F:	*	*	*F:	*	*	*F:	*F:	*F:	*F:
*M4/4	*	*	*M4/4	*	*M4/4	*	*M4/4	*	*M4/4	*M4/4	*	*	*M4/4	*	*	*M4/4	*	*	*M4/4	*	*	*M4/4	*M4/4	*M4/4	*M4/4
*met(c)	*	*	*met(c)	*	*met(c)	*	*met(c)	*	*met(c)	*met(c)	*	*	*met(c)	*	*	*met(c)	*	*	*met(c)	*	*	*met(c)	*met(c)	*met(c)	*met(c)
=1	=1	=1	=1	=1	=1	=1	=1	=1	=1	=1	=1	=1	=1	=1	=1	=1	=1	=1	=1	=1	=1	=1	=1	=1	=1
*	*	*	*	*	*^	*	*	*	*	*	*	*	*	*	*	*	*	*	*	*	*	*	*	*	*
*	*	*	*	*	*Xtremolo	*tremolo	*	*	*	*	*	*	*	*	*	*	*	*	*	*	*	*	*	*	*	*2\right
*	*	*	*	*	*	*2\right	*	*	*	*	*	*	*	*	*	*	*	*	*	*	*	*	*	*	*	*
!LO:TX:a:t=allo&colon;	!	!	!LO:TX:a:t=allo&colon;	!	!LO:TX:a:t=allo&colon;	!	!	!LO:TX:a:t=Allo Viva&colon;	!LO:DY:b:t=forte	!LO:TX:a:t=Tacet	!LO:TX:a:t=allo&colon;	!	!	!LO:TX:a:t=allo&colon;	!	!	!LO:TX:a:t=allo&colon;	!	!	!LO:TX:b:t=allo&colon;	!	!	!	!LO:TX:a:t=allo&colon;	!	!LO:TX:a:t=allo&colon;
8F\L	.	.	8f\L	.	16a/LL	16f\LL	.	16ff\LL	f	1ryy	4F\	Et	.	4c\	Et	.	4a\	Et	.	4ff\	Et	.	4f\	4a\	2a/	2ff\
.	.	.	.	.	16a/	16f\	.	16gg\	.	.	.	.	.	.	.	.	.	.	.	.	.	.	.	.	.	.
8F\	.	.	8f\	.	16a/	16f\	.	16aa\	.	.	.	.	.	.	.	.	.	.	.	.	.	.	.	.	.	.
.	.	.	.	.	16a/JJ	16f\	.	16gg\JJ	.	.	.	.	.	.	.	.	.	.	.	.	.	.	.	.	.	.
8A\	6	.	8a\	.	16a/LL	16f\	.	8ff\L	.	.	8A\	re-	.	8c\	re-	.	8a\	re-	.	8ff\	re-	.	8f\L	8a\L	.	.
.	.	.	.	.	16a/	16f\	.	.	.	.	.	.	.	.	.	.	.	.	.	.	.	.	.	.	.	.
8A\J	.	.	8a\J	.	16a/	16f\	.	8ff\J	.	.	8A\	-su-	.	8c\	-su-	.	8a\	-su-	.	8ff\	-sur-	.	8f\J	8a\J	.	.
.	.	.	.	.	16a/JJ	16f\JJ	.	.	.	.	.	.	.	.	.	.	.	.	.	.	.	.	.	.	.	.
*	*	*	*	*	*	*Xtremolo	*	*	*	*	*	*	*	*2\right	*	*	*	*	*	*	*	*	*	*	*	*
!LO:TX:a:t=P:problem:mixed beam	!	!	!	!	!	!	!	!	!	!	!	!	!	!	!	!	!	!	!	!	!	!	!	!	!	!
8c\L	6 4	.	8c\L	.	8a/L	2ryy	.	8ff\L	.	.	(4c\	-re-	.	2c\	-re-	.	8a\L	-re-	.	8ff\L	-re-	.	4f\	4a\	4a/	8ff\L
8c\	.	.	8c\	.	16g/L	.	.	16ee\L	.	.	.	.	.	.	.	.	16g\L	.	.	16ee\L	.	.	.	.	.	16ee\L
.	.	.	.	.	16a/JJ	.	.	16ff\JJ	.	.	.	.	.	.	.	.	16a\JJ	.	.	16ff\JJ	.	.	.	.	.	16ff\JJ
.	.	.	.	.	.	.	.	16qqaa/	.	.	.	.	.	.	.	.	.	.	.	.	.	.	.	.	.	8qqaa/
8C/	7 5 3	.	8c\	.	16cc/LL	.	.	8gg\L	.	.	4C/)	.	.	.	.	.	8b-\L	.	.	8gg\L	.	.	4c/	8b-\L	8b-/L	8gg\L
.	.	.	.	.	16b-/	.	.	.	.	.	.	.	.	.	.	.	.	.	.	.	.	.	.	.	.	.
8C/J	.	.	8c\J	.	16a/	.	.	16ff\L	.	.	.	.	.	.	.	.	8g\J	.	.	8ee\J	.	.	.	8g\J	8g/J	16ff\L
.	.	.	.	.	16g/JJ	.	.	16ee\JJ	.	.	.	.	.	.	.	.	.	.	.	.	.	.	.	.	.	16ee\JJ
=2	=2	=2	=2	=2	=2	=2	=2	=2	=2	=2	=2	=2	=2	=2	=2	=2	=2	=2	=2	=2	=2	=2	=2	=2	=2	=2
4F\	8 3_	.	4f\	.	4a/	4f\	.	16ff\LL	.	1ryy	4F\	-xit	.	4c\	-xit	.	4a\	-xit	.	4ff\	-xit	.	4f\	4a\	4a/	4ff\
.	.	.	.	.	.	.	.	(16gg\	.	.	.	.	.	.	.	.	.	.	.	.	.	.	.	.	.	.
.	.	.	.	.	.	.	.	16aa\)	.	.	.	.	.	.	.	.	.	.	.	.	.	.	.	.	.	.
.	.	.	.	.	.	.	.	16gg\JJ	.	.	.	.	.	.	.	.	.	.	.	.	.	.	.	.	.	.
4F\	.	.	4f\	.	4a/	4f\	.	16ff\LL	.	.	4r	.	.	4r	.	.	4r	.	.	4r	.	.	4f\	4a\	4a/	4ff\
.	.	.	.	.	.	.	.	(16gg\	.	.	.	.	.	.	.	.	.	.	.	.	.	.	.	.	.	.
.	.	.	.	.	.	.	.	16aa\)	.	.	.	.	.	.	.	.	.	.	.	.	.	.	.	.	.	.
.	.	.	.	.	.	.	.	16gg\JJ	.	.	.	.	.	.	.	.	.	.	.	.	.	.	.	.	.	.
4F\	.	.	4f\	.	4a/	4f\	.	(8ff\L	.	.	2r	.	.	2r	.	.	2r	.	.	2r	.	.	4f\	4a\	4a/	4ff\
.	X X	.	.	.	.	.	.	8ee\	.	.	.	.	.	.	.	.	.	.	.	.	.	.	.	.	.	.
4r	.	.	4r	.	4r	4ryy	.	8dd\	.	.	.	.	.	.	.	.	.	.	.	.	.	.	4r	4r	4r	4r
.	.	.	.	.	.	.	.	8cc\J)	.	.	.	.	.	.	.	.	.	.	.	.	.	.	.	.	.	.
*	*	*	*	*	*v	*v	*	*	*	*	*	*	*	*	*	*	*	*	*	*	*	*	*	*	*	*
=3	=3	=3	=3	=3	=3	=3	=3	=3	=3	=3	=3	=3	=3	=3	=3	=3	=3	=3	=3	=3	=3	=3	=3	=3	=3
!	!	!	!	!	!	!LO:DY:a:t=po	!	!	!	!	!	!	!	!	!	!	!	!	!	!	!	!	!	!	!
00r	.	.	4r	.	4r	p	1cc	.	1ryy	00r	.	.	00r	.	.	00r	.	.	00r	.	.	00r	00r	00r	00r
.	.	.	4e\	.	4g/	.	.	.	.	.	.	.	.	.	.	.	.	.	.	.	.	.	.	.	.
.	.	.	4d\	.	4f/	.	.	.	.	.	.	.	.	.	.	.	.	.	.	.	.	.	.	.	.
.	.	.	4c\	.	4e/	.	.	.	.	.	.	.	.	.	.	.	.	.	.	.	.	.	.	.	.
=4	=4	=4	=4	=4	=4	=4	=4	=4	=4	=4	=4	=4	=4	=4	=4	=4	=4	=4	=4	=4	=4	=4	=4	=4	=4
*	*	*	*2\right	*	*	*	*	*	*	*	*	*	*	*	*	*	*	*	*	*	*	*	*	*	*
.	.	.	2d\	.	1f	.	(8cc\L	.	1ryy	.	.	.	.	.	.	.	.	.	.	.	.	.	.	.	.
.	.	.	.	.	.	.	8bn\)	.	.	.	.	.	.	.	.	.	.	.	.	.	.	.	.	.	.
.	.	.	.	.	.	.	8dd\|	.	.	.	.	.	.	.	.	.	.	.	.	.	.	.	.	.	.
.	.	.	.	.	.	.	8ff\J|	.	.	.	.	.	.	.	.	.	.	.	.	.	.	.	.	.	.
.	.	.	2G/	.	.	.	(8ee\L	.	.	.	.	.	.	.	.	.	.	.	.	.	.	.	.	.	.
.	.	.	.	.	.	.	8dd\)	.	.	.	.	.	.	.	.	.	.	.	.	.	.	.	.	.	.
.	.	.	.	.	.	.	8cc\|	.	.	.	.	.	.	.	.	.	.	.	.	.	.	.	.	.	.
.	.	.	.	.	.	.	8b\J|	.	.	.	.	.	.	.	.	.	.	.	.	.	.	.	.	.	.
=5	=5	=5	=5	=5	=5	=5	=5	=5	=5	=5	=5	=5	=5	=5	=5	=5	=5	=5	=5	=5	=5	=5	=5	=5	=5
.	.	.	4r	.	4r	.	1cc	.	1ryy	.	.	.	.	.	.	.	.	.	.	.	.	.	.	.	.
.	.	.	4e\	.	4g/	.	.	.	.	.	.	.	.	.	.	.	.	.	.	.	.	.	.	.	.
.	.	.	4d\	.	4f/	.	.	.	.	.	.	.	.	.	.	.	.	.	.	.	.	.	.	.	.
.	.	.	4c\	.	4e/	.	.	.	.	.	.	.	.	.	.	.	.	.	.	.	.	.	.	.	.
=6	=6	=6	=6	=6	=6	=6	=6	=6	=6	=6	=6	=6	=6	=6	=6	=6	=6	=6	=6	=6	=6	=6	=6	=6	=6
.	.	.	2d\	.	2f/	.	(8cc\L	.	1ryy	.	.	.	.	.	.	.	.	.	.	.	.	.	.	.	.
.	.	.	.	.	.	.	8b-X\)	.	.	.	.	.	.	.	.	.	.	.	.	.	.	.	.	.	.
.	.	.	.	.	.	.	8b-\|	.	.	.	.	.	.	.	.	.	.	.	.	.	.	.	.	.	.
.	.	.	.	.	.	.	8b-\J|	.	.	.	.	.	.	.	.	.	.	.	.	.	.	.	.	.	.
.	.	.	2c\	.	2e/	.	(8b-/L	.	.	.	.	.	.	.	.	.	.	.	.	.	.	.	.	.	.
.	.	.	.	.	.	.	8a/)	.	.	.	.	.	.	.	.	.	.	.	.	.	.	.	.	.	.
.	.	.	.	.	.	.	8a/	.	.	.	.	.	.	.	.	.	.	.	.	.	.	.	.	.	.
.	.	.	.	.	.	.	8a/J	.	.	.	.	.	.	.	.	.	.	.	.	.	.	.	.	.	.
!	!	!	!	!	!	!	!LO:LB:g=original	!	!	!	!	!	!	!	!	!	!	!	!	!	!	!	!	!	!
=7	=7	=7	=7	=7	=7	=7	=7	=7	=7	=7	=7	=7	=7	=7	=7	=7	=7	=7	=7	=7	=7	=7	=7	=7	=7
0r	.	.	2B-/	.	2d/	.	(8a/L	.	1ryy	0r	.	.	0r	.	.	0r	.	.	0r	.	.	0r	0r	0r	0r
.	.	.	.	.	.	.	8g/)	.	.	.	.	.	.	.	.	.	.	.	.	.	.	.	.	.	.
.	.	.	.	.	.	.	8g/	.	.	.	.	.	.	.	.	.	.	.	.	.	.	.	.	.	.
.	.	.	.	.	.	.	8g/J	.	.	.	.	.	.	.	.	.	.	.	.	.	.	.	.	.	.
.	.	.	2G/	.	2c/	.	(8g/L	.	.	.	.	.	.	.	.	.	.	.	.	.	.	.	.	.	.
.	.	.	.	.	.	.	8f/)	.	.	.	.	.	.	.	.	.	.	.	.	.	.	.	.	.	.
.	.	.	.	.	.	.	8f/	.	.	.	.	.	.	.	.	.	.	.	.	.	.	.	.	.	.
.	.	.	.	.	.	.	8f/J	.	.	.	.	.	.	.	.	.	.	.	.	.	.	.	.	.	.
!	!	!	!	!	!LO:LB:g=original	!	!	!	!	!	!	!	!	!	!	!	!	!	!	!	!	!	!	!	!
=8	=8	=8	=8	=8	=8	=8	=8	=8	=8	=8	=8	=8	=8	=8	=8	=8	=8	=8	=8	=8	=8	=8	=8	=8	=8
.	.	.	4c 4C/	.	8B-/L	.	8e'/L	.	1ryy	.	.	.	.	.	.	.	.	.	.	.	.	.	.	.	.
.	.	.	.	.	8c/	.	8f'/	.	.	.	.	.	.	.	.	.	.	.	.	.	.	.	.	.	.
.	.	.	4r	.	8d/	.	8g'/	.	.	.	.	.	.	.	.	.	.	.	.	.	.	.	.	.	.
.	.	.	.	.	8e/J	.	8a'/J	.	.	.	.	.	.	.	.	.	.	.	.	.	.	.	.	.	.
.	.	.	2r	.	8g/L	.	8b-\L|	.	.	.	.	.	.	.	.	.	.	.	.	.	.	.	.	.	.
.	.	.	.	.	8a/	.	8cc\|	.	.	.	.	.	.	.	.	.	.	.	.	.	.	.	.	.	.
.	.	.	.	.	8b-/	.	8dd\|	.	.	.	.	.	.	.	.	.	.	.	.	.	.	.	.	.	.
.	.	.	.	.	8g/J	.	8ee\J|	.	.	.	.	.	.	.	.	.	.	.	.	.	.	.	.	.	.
!	!	!	!LO:LB:g=original	!	!	!	!	!	!	!	!	!	!	!	!	!	!	!	!	!	!	!	!	!	!
=9	=9	=9	=9	=9	=9	=9	=9	=9	=9	=9	=9	=9	=9	=9	=9	=9	=9	=9	=9	=9	=9	=9	=9	=9	=9
*	*	*	*	*	*^	*	*	*	*	*	*	*	*	*	*	*	*	*	*	*	*	*	*	*	*
*	*	*	*	*	*tremolo	*tremolo	*	*	*	*	*	*	*	*	*	*	*	*	*	*	*	*	*	*	*	*
!	!	!	!	!	!	!	!LO:DY:a	!	!	!	!	!	!	!	!	!	!	!	!	!	!	!	!	!	!	!
8F\L	.	.	8f\L	.	16a/LL	16f\LL	f	16ff\LL	.	1ryy	4F\	ter-	.	4c\	ter-	.	4a\	ter-	.	4ff\	ter-	.	4f\	4a\	2a/	2ff\
.	.	.	.	.	16a/	16f\	.	16gg\	.	.	.	.	.	.	.	.	.	.	.	.	.	.	.	.	.	.
8F\	.	.	8f\	.	16a/	16f\	.	16aa\	.	.	.	.	.	.	.	.	.	.	.	.	.	.	.	.	.	.
.	.	.	.	.	16a/	16f\	.	16gg\JJ	.	.	.	.	.	.	.	.	.	.	.	.	.	.	.	.	.	.
8A\	6	.	8a\	.	16a/	16f\	.	8ff\L	.	.	8A\	-ti-	.	8c\	-ti-	.	8a\	-ti-	.	8ff\	-ti-	.	8f\L	8a\L	.	.
.	.	.	.	.	16a/	16f\	.	.	.	.	.	.	.	.	.	.	.	.	.	.	.	.	.	.	.	.
8A\J	.	.	8a\J	.	16a/	16f\	.	8ff\J	.	.	8A\	-a	.	8c\	-a	.	8a\	-a	.	8ff\	-a	.	8f\J	8a\J	.	.
.	.	.	.	.	16a/JJ	16f\JJ	.	.	.	.	.	.	.	.	.	.	.	.	.	.	.	.	.	.	.	.
*	*	*	*tremolo	*	*Xtremolo	*Xtremolo	*	*	*	*	*	*	*	*	*	*	*	*	*	*	*	*	*	*	*	*
!LO:TX:a:t=P:problem:mixed beam	!	!	!	!	!	!	!	!	!	!	!	!	!	!	!	!	!LO:LB:g=original	!	!	!	!	!	!	!	!	!
8c\L	4	.	8c\L	.	8a/L	2ryy	.	8ff\L	.	.	(4c\	di-	.	2c\	di-	.	8a\L	di-	.	8ff\L	di-	.	4f\	4a\	8a/L	8ff\L
8c\	.	.	8c\	.	16g/L	.	.	16ee\L	.	.	.	.	.	.	.	.	16g\L	.	.	16ee\L	.	.	.	.	16g/L	16ee\L
.	.	.	.	.	16a/JJ	.	.	16ff\JJ	.	.	.	.	.	.	.	.	16a\JJ	.	.	16ff\JJ	.	.	.	.	16a/JJ	16ff\JJ
.	.	.	.	.	.	.	.	.	.	.	.	.	.	.	.	.	.	.	.	.	.	.	.	.	.	8qqaa/
8C/	3	.	8c\	.	16cc/LL	.	.	16aa\LL	.	.	4C/)	.	.	.	.	.	8b-\L	.	.	8gg\L	.	.	4c/	8b-\L	8b-/L	8gg\L
.	.	.	.	.	16b-/	.	.	16gg\	.	.	.	.	.	.	.	.	.	.	.	.	.	.	.	.	.	.
8C/J	.	.	8c\J	.	16a/	.	.	16ff\	.	.	.	.	.	.	.	.	8g\J	.	.	8ee\J	.	.	.	8g\J	8g/J	16ff\L
.	.	.	.	.	16g/JJ	.	.	16ee\JJ	.	.	.	.	.	.	.	.	.	.	.	.	.	.	.	.	.	16ee\JJ
*	*	*	*Xtremolo	*	*	*	*	*	*	*	*	*	*	*	*	*	*	*	*	*	*	*	*	*	*	*
!	!	!	!	!	!	!	!	!	!	!	!	!	!	!	!	!	!	!	!	!LO:LB:g=original	!	!	!	!	!	!
=10	=10	=10	=10	=10	=10	=10	=10	=10	=10	=10	=10	=10	=10	=10	=10	=10	=10	=10	=10	=10	=10	=10	=10	=10	=10	=10
!	!	!	!	!	!	!	!	!	!	!	!LO:TX:t=P:problem:oddech jako rozdzielacz słów:global	!	!	!	!	!	!	!	!	!	!	!	!	!	!	!
4F\	6 3_	.	4c\	.	4a/	4f\	.	16ff\LL	.	1ryy	4F,<\	-e	.	4c\	-e	.	4a\	-e	.	4ff\	-e	.	4f\	4a\	4a/	4ff\
.	.	.	.	.	.	.	.	(16gg\	.	.	.	.	.	.	.	.	.	.	.	.	.	.	.	.	.	.
.	.	.	.	.	.	.	.	16aa\)	.	.	.	.	.	.	.	.	.	.	.	.	.	.	.	.	.	.
.	.	.	.	.	.	.	.	16gg\JJ	.	.	.	.	.	.	.	.	.	.	.	.	.	.	.	.	.	.
4F\	.	.	4c\	.	4a/	4f\	.	16ff\LL	.	.	4F\	Se-	.	4c\	Se-	.	4a\	Se-	.	4ff\	Se-	.	4f\	4a\	4a/	4ff\
.	.	.	.	.	.	.	.	(16gg\	.	.	.	.	.	.	.	.	.	.	.	.	.	.	.	.	.	.
.	.	.	.	.	.	.	.	16aa\)	.	.	.	.	.	.	.	.	.	.	.	.	.	.	.	.	.	.
.	.	.	.	.	.	.	.	16gg\JJ	.	.	.	.	.	.	.	.	.	.	.	.	.	.	.	.	.	.
!	!	!	!	!	!	!	!	!LO:TX:a:t=P:problem:mixed beam	!	!	!	!	!	!	!	!	!	!	!	!	!	!	!	!	!	!
4F\	.	.	4c\	.	4a/	4f\	.	8ff\L	.	.	4F\	-cun-	.	4c\	-cun-	.	4a\	-cun-	.	4ff\	-cun-	.	4f\	4a\	2a/	2ff\
.	X X	.	.	.	.	.	.	8f/	.	.	.	.	.	.	.	.	.	.	.	.	.	.	.	.	.	.
4r	.	.	4r	.	4r	4ryy	.	8ff\	.	.	8F\	-dum	.	8c\	-du(m)	.	8a\	-dum	.	8ff\	-dum	.	8f\L	8a\L	.	.
.	.	.	.	.	.	.	.	8ff\J	.	.	8F\	Scrip-	.	8c\	Scrip-	.	8a\	Scrip-	.	8ff\	Scrip-	.	8f\J	8a\J	.	.
!	!	!	!	!	!	!	!	!	!	!	!LO:LB:g=original	!	!	!	!	!	!	!	!	!	!	!	!	!	!	!
=11	=11	=11	=11	=11	=11	=11	=11	=11	=11	=11	=11	=11	=11	=11	=11	=11	=11	=11	=11	=11	=11	=11	=11	=11	=11	=11
*	*	*	*	*	*	*	*	*	*	*	*	*	*	*	*	*	*	*	*	*2\right	*	*	*2\right	*2\right	*	*
!	!	!	!	!	!	!	!	!LO:TX:a:t=P:problem:takt zapisany repetycją	!	!	!	!	!	!	!	!	!	!	!	!	!	!	!	!	!	!
4D/	8 3_	.	4d\	.	4a/	4f\	.	16ff\LLyy	.	1ryy	4D/	-tu-	.	4d\	-tu-	.	4a\	-tu-	.	2ff\	-tu-	.	2f\	2a\	1a	1ff
.	.	.	.	.	.	.	.	(y16gg\yy	.	.	.	.	.	.	.	.	.	.	.	.	.	.	.	.	.	.
.	.	.	.	.	.	.	.	16aa\yy)	.	.	.	.	.	.	.	.	.	.	.	.	.	.	.	.	.	.
.	.	.	.	.	.	.	.	16gg\JJyy	.	.	.	.	.	.	.	.	.	.	.	.	.	.	.	.	.	.
4D/	.	.	4d\	.	4a/	4f\	.	16ff\LLyy	.	.	4D/	-ras	.	4d\	-ras	.	4a\	-ras	.	.	.	.	.	.	.	.
.	.	.	.	.	.	.	.	(y16gg\yy	.	.	.	.	.	.	.	.	.	.	.	.	.	.	.	.	.	.
.	.	.	.	.	.	.	.	16aa\)yy	.	.	.	.	.	.	.	.	.	.	.	.	.	.	.	.	.	.
.	.	.	.	.	.	.	.	16gg\JJyy	.	.	.	.	.	.	.	.	.	.	.	.	.	.	.	.	.	.
!	!	!	!	!	!	!	!	!LO:TX:a:t=P:problem:mixed beam	!	!	!	!	!	!	!	!	!	!	!	!	!	!	!	!	!	!
4D/	.	.	4d\	.	4a/	4f\	.	8ff\Lyy	.	.	4D/	et	.	4d\	et	.	4a\	et	.	4ff\	-ras	.	4f\	4a\	.	.
.	X X	.	.	.	.	.	.	8f/yy	.	.	.	.	.	.	.	.	.	.	.	.	.	.	.	.	.	.
4r	.	.	4r	.	4r	4ryy	.	8ff\yy	.	.	4d\	aſ-	.	4d\	aſ-	.	4a\	as-	.	8ff\	et	.	8f\L	8a\L	.	.
.	.	.	.	.	.	.	.	8ff\Jyy	.	.	.	.	.	.	.	.	.	.	.	8ff\	aſ-	.	8f\J	8a\J	.	.
*	*	*	*	*	*v	*v	*	*	*	*	*	*	*	*	*	*	*	*	*	*	*	*	*	*	*	*
!	!	!	!	!	!	!	!	!	!	!	!	!	!LO:LB:g=original	!	!	!	!	!	!	!	!	!	!LO:LB:g=original	!	!
=12	=12	=12	=12	=12	=12	=12	=12	=12	=12	=12	=12	=12	=12	=12	=12	=12	=12	=12	=12	=12	=12	=12	=12	=12	=12
*	*	*	*	*	*	*	*	*	*	*2\right	*	*	*	*	*	*	*	*	*	*	*	*	*	*	*
4BBn/	6 5	.	4d\	.	4g 4G/	.	16gg\LL	.	1ryy	2Bn\	-cen-	.	2d\	-cen-	.	4g\	-cen-	.	4ee\	-cen-	.	2g\	2g\	1dd	1ff
.	.	.	.	.	.	.	(16ff\	.	.	.	.	.	.	.	.	.	.	.	.	.	.	.	.	.	.
.	.	.	.	.	.	.	16ee\)	.	.	.	.	.	.	.	.	.	.	.	.	.	.	.	.	.	.
.	.	.	.	.	.	.	16ff\JJ	.	.	.	.	.	.	.	.	.	.	.	.	.	.	.	.	.	.
4BB/	.	.	4d\	.	4g 4G/	.	16gg\LL	.	.	.	.	.	.	.	.	8g\	-dit	.	8cc\	-dit	.	.	.	.	.
.	.	.	.	.	.	.	(16ff\	.	.	.	.	.	.	.	.	.	.	.	.	.	.	.	.	.	.
.	.	.	.	.	.	.	16ee\)	.	.	.	.	.	.	.	.	8g\	in	.	8cc\	in	.	.	.	.	.
.	.	.	.	.	.	.	16ff\JJ	.	.	.	.	.	.	.	.	.	.	.	.	.	.	.	.	.	.
4BB/	.	.	4d\	.	4g 4G/	.	16ff\LL	.	.	4B\	-dit	.	4d\	-dit	.	4g\	Cae-	.	4cc\	Cae-	.	4g\	4g\	.	.
.	.	.	.	.	.	.	(16ee\	.	.	.	.	.	.	.	.	.	.	.	.	.	.	.	.	.	.
.	.	.	.	.	.	.	16dd\)	.	.	.	.	.	.	.	.	.	.	.	.	.	.	.	.	.	.
.	.	.	.	.	.	.	16cc\JJ	.	.	.	.	.	.	.	.	.	.	.	.	.	.	.	.	.	.
4r	.	.	4r	.	4r	.	16bn/LL	.	.	4B\	in	.	4d\	in	.	4g\	-lum	.	8cc\	-lum	.	8g\L	8g\L	.	.
.	.	.	.	.	.	.	(16a/	.	.	.	.	.	.	.	.	.	.	.	.	.	.	.	.	.	.
*	*	*	*	*	*	*	*	*	*	*	*	*	*	*	*	*	*	*	*	*ij	*	*	*	*	*
.	.	.	.	.	.	.	16g/)	.	.	.	.	.	.	.	.	.	.	.	8cc\	in	.	8g\J	8g\J	.	.
.	.	.	.	.	.	.	16f'/JJ	.	.	.	.	.	.	.	.	.	.	.	.	.	.	.	.	.	.
!LO:LB:g=original	!	!	!	!	!	!	!LO:LB:g=original	!	!	!	!	!	!	!	!	!	!	!	!	!	!	!LO:LB:g=original	!	!	!LO:LB:g=original
=13	=13	=13	=13	=13	=13	=13	=13	=13	=13	=13	=13	=13	=13	=13	=13	=13	=13	=13	=13	=13	=13	=13	=13	=13	=13
*	*	*	*tremolo	*	*tremolo	*	*	*	*	*	*	*	*	*	*	*	*	*	*	*	*	*	*	*	*
8C/L	.	.	8c\L	.	16e/LL	.	8e/L	.	1ryy	4c\	Cae-	.	4c\	Cae-	.	4g\	Se-	.	2cc\	Cae-	.	4c/	4g\	4cc\	4ee\
.	.	.	.	.	16e/	.	.	.	.	.	.	.	.	.	.	.	.	.	.	.	.	.	.	.	.
8C/	.	.	8c\	.	16e/	.	8g/J	.	.	.	.	.	.	.	.	.	.	.	.	.	.	.	.	.	.
.	.	.	.	.	16e/	.	.	.	.	.	.	.	.	.	.	.	.	.	.	.	.	.	.	.	.
8C/	.	.	8c\	.	16e/	.	4.cc\	.	.	4C/	-lum	.	4c\	-lum	.	8g\	-det	.	.	.	.	4r	4r	4cc\	4ccc\
.	.	.	.	.	16e/	.	.	.	.	.	.	.	.	.	.	.	.	.	.	.	.	.	.	.	.
8C/J	.	.	8c\J	.	16e/	.	.	.	.	.	.	.	.	.	.	8g\	ad	.	.	.	.	.	.	.	.
.	.	.	.	.	16e/JJ	.	.	.	.	.	.	.	.	.	.	.	.	.	.	.	.	.	.	.	.
*2\right	*	*	*	*	*	*	*	*	*	*	*	*	*	*	*	*	*	*	*	*	*	*	*	*	*
*tremolo	*	*	*	*	*	*	*	*	*	*	*	*	*	*	*	*	*	*	*	*	*	*	*	*	*
!	!	!	!	!	!	!	!	!	!	!	!	!	!	!	!	!	!	!	!LO:TX:t=P:problem:oddech jako rozdzielacz słów:global	!	!	!	!	!	!
8E\L	6	.	8c\L	.	16g/LL	.	.	.	.	2r	.	.	2r	.	.	4g\	dex-	.	4cc,<\	-lum	.	4c/	4c/	4r	2r
*	*	*	*	*	*	*	*	*	*	*	*	*	*	*	*	*	*	*	*	*Xij	*	*	*	*	*
.	.	.	.	.	16g/	.	.	.	.	.	.	.	.	.	.	.	.	.	.	.	.	.	.	.	.
8E\	.	.	8c\	.	16g/	.	16cc\LL	.	.	.	.	.	.	.	.	.	.	.	.	.	.	.	.	.	.
.	.	.	.	.	16g/	.	16dd\J	.	.	.	.	.	.	.	.	.	.	.	.	.	.	.	.	.	.
8E\	.	.	8c\	.	16g/	.	8cc\	.	.	.	.	.	.	.	.	8g\	-te-	.	4cc\	in	.	8c/L	8c/L	4cc\	.
.	.	.	.	.	16g/	.	.	.	.	.	.	.	.	.	.	.	.	.	.	.	.	.	.	.	.
8E\J	.	.	8c\J	.	16g/	.	8cc\J	.	.	.	.	.	.	.	.	8g\	-ram	.	.	.	.	8c/J	8c/J	.	.
.	.	.	.	.	16g/JJ	.	.	.	.	.	.	.	.	.	.	.	.	.	.	.	.	.	.	.	.
!	!	!	!	!	!	!	!	!	!	!	!	!	!	!	!	!LO:LB:g=original	!	!	!LO:LB:g=original	!	!	!	!	!LO:LB:g=original	!
=14	=14	=14	=14	=14	=14	=14	=14	=14	=14	=14	=14	=14	=14	=14	=14	=14	=14	=14	=14	=14	=14	=14	=14	=14	=14
*	*	*	*	*	*	*	*	*	*	*	*	*	*	*	*	*2\right	*	*	*	*	*	*	*	*2\right	*
8F\L	6	.	8c\L	.	16a/LL	.	8cc#X\L	.	1ryy	2F\	Se-	.	2c\	Se-	.	2a\	Pa-	.	2cc\	Cae-	.	4c/	4c/	2dd\	1ccc
.	.	.	.	.	16a/	.	.	.	.	.	.	.	.	.	.	.	.	.	.	.	.	.	.	.	.
8F\	.	.	8c\	.	16a/	.	8dd\J	.	.	.	.	.	.	.	.	.	.	.	.	.	.	.	.	.	.
.	.	.	.	.	16a/	.	.	.	.	.	.	.	.	.	.	.	.	.	.	.	.	.	.	.	.
8F\	.	.	8c\	.	16a/	.	4.dd\	.	.	.	.	.	.	.	.	.	.	.	.	.	.	4r	4r	.	.
.	.	.	.	.	16a/	.	.	.	.	.	.	.	.	.	.	.	.	.	.	.	.	.	.	.	.
8F\J	.	.	8c\J	.	16a/	.	.	.	.	.	.	.	.	.	.	.	.	.	.	.	.	.	.	.	.
.	.	.	.	.	16a/JJ	.	.	.	.	.	.	.	.	.	.	.	.	.	.	.	.	.	.	.	.
8G\L	6 4	.	8g\L	.	16cc\LL	.	.	.	.	4G\	-det	.	4c\	-det	.	4e\	-tris	.	4cc\	-lum	.	4c/	4c/	2ee\	.
.	.	.	.	.	16cc\	.	.	.	.	.	.	.	.	.	.	.	.	.	.	.	.	.	.	.	.
8G\	.	.	8g\	.	16cc\	.	16ee\LL	.	.	.	.	.	.	.	.	.	.	.	.	.	.	.	.	.	.
.	.	.	.	.	16cc\	.	16ff\JJ	.	.	.	.	.	.	.	.	.	.	.	.	.	.	.	.	.	.
*	*	*	*	*	*	*	*	*	*	*	*	*	*	*	*	*	*	*	*	*ij	*	*	*	*	*
8G\	.	.	8g\	.	16cc\	.	8ee\L	.	.	4G\	ad	.	4c\	ad	.	4e\	et	.	4cc\	in	.	8c/L	8c/L	.	.
.	.	.	.	.	16cc\	.	.	.	.	.	.	.	.	.	.	.	.	.	.	.	.	.	.	.	.
8G\J	.	.	8g\J	.	16cc\	.	8ee\J	.	.	.	.	.	.	.	.	.	.	.	.	.	.	8c/J	8c/J	.	.
.	.	.	.	.	16cc\JJ	.	.	.	.	.	.	.	.	.	.	.	.	.	.	.	.	.	.	.	.
=15	=15	=15	=15	=15	=15	=15	=15	=15	=15	=15	=15	=15	=15	=15	=15	=15	=15	=15	=15	=15	=15	=15	=15	=15	=15
8A\L	6	.	8a\L	.	16cc\LL	.	8ee\L	.	1ryy	2A\	dex-	.	2c\	dex-	.	2f\	i-	.	2cc\	Cae-	.	(2c/	2c/	2ff\	1ccc
.	.	.	.	.	16cc\	.	.	.	.	.	.	.	.	.	.	.	.	.	.	.	.	.	.	.	.
8A\	.	.	8a\	.	16cc\	.	8ff\J	.	.	.	.	.	.	.	.	.	.	.	.	.	.	.	.	.	.
.	.	.	.	.	16cc\	.	.	.	.	.	.	.	.	.	.	.	.	.	.	.	.	.	.	.	.
8A\	.	.	8a\	.	16cc\	.	4.ff\	.	.	.	.	.	.	.	.	.	.	.	.	.	.	.	.	.	.
.	.	.	.	.	16cc\	.	.	.	.	.	.	.	.	.	.	.	.	.	.	.	.	.	.	.	.
8A\J	.	.	8a\J	.	16cc\	.	.	.	.	.	.	.	.	.	.	.	.	.	.	.	.	.	.	.	.
.	.	.	.	.	16cc\JJ	.	.	.	.	.	.	.	.	.	.	.	.	.	.	.	.	.	.	.	.
8E\L	6	.	8e\L	.	16cc\LL	.	.	.	.	4E\	-te-	.	4c\	-te-	.	4g\	-te-	.	4cc,<\	-lum	.	4c/)	4c/	2gg\	.
.	.	.	.	.	16cc\	.	.	.	.	.	.	.	.	.	.	.	.	.	.	.	.	.	.	.	.
8E\	.	.	8e\	.	16cc\	.	16gg\LL	.	.	.	.	.	.	.	.	.	.	.	.	.	.	.	.	.	.
.	.	.	.	.	16cc\	.	16aa\JJ	.	.	.	.	.	.	.	.	.	.	.	.	.	.	.	.	.	.
8E\	.	.	8e\	.	16cc\	.	8gg\L	.	.	4E\	-ram	.	4c\	-ram	.	8g\	-rum	.	4cc\	in	.	4r	4r	.	.
.	.	.	.	.	16cc\	.	.	.	.	.	.	.	.	.	.	.	.	.	.	.	.	.	.	.	.
8E\J	.	.	8e\J	.	16cc\	.	8gg\J	.	.	.	.	.	.	.	.	8g\	ven-	.	.	.	.	.	.	.	.
.	.	.	.	.	16cc\JJ	.	.	.	.	.	.	.	.	.	.	.	.	.	.	.	.	.	.	.	.
=16	=16	=16	=16	=16	=16	=16	=16	=16	=16	=16	=16	=16	=16	=16	=16	=16	=16	=16	=16	=16	=16	=16	=16	=16	=16
8F\L	.	.	8f\L	.	16cc\LL	.	(8gg#X\L	.	1ryy	2F\	Pa-	.	2c\	Pa-	.	2a\	-tu-	.	2cc\	Cae-	.	1r	1r	4aa\	4ccc\
.	.	.	.	.	16cc\	.	.	.	.	.	.	.	.	.	.	.	.	.	.	.	.	.	.	.	.
8F\	.	.	8f\	.	16cc\	.	8aa\J)	.	.	.	.	.	.	.	.	.	.	.	.	.	.	.	.	.	.
.	.	.	.	.	16cc\	.	.	.	.	.	.	.	.	.	.	.	.	.	.	.	.	.	.	.	.
8F\	.	.	8f\	.	16cc\	.	4.aa\	.	.	.	.	.	.	.	.	.	.	.	.	.	.	.	.	4r	4r
.	.	.	.	.	16cc\	.	.	.	.	.	.	.	.	.	.	.	.	.	.	.	.	.	.	.	.
8F\J	.	.	8f\J	.	16cc\	.	.	.	.	.	.	.	.	.	.	.	.	.	.	.	.	.	.	.	.
.	.	.	.	.	16cc\JJ	.	.	.	.	.	.	.	.	.	.	.	.	.	.	.	.	.	.	.	.
8D\L	6\	.	8g\L	.	16ff\LL	.	.	.	.	2D\	.	.	2G/	.	.	2bn\	-rus	.	2ff\	.	.	.	.	4r	4r
.	.	.	.	.	16ff\	.	.	.	.	.	.	.	.	.	.	.	.	.	.	.	.	.	.	.	.
8D\	.	.	8g\	.	16ff\	.	(16bbn\LL	.	.	.	.	.	.	.	.	.	.	.	.	.	.	.	.	.	.
.	.	.	.	.	16ff\	.	16ccc\JJ)	.	.	.	.	.	.	.	.	.	.	.	.	.	.	.	.	.	.
8D\	.	.	8g\	.	16ff\	.	8bb\L	.	.	.	.	.	.	.	.	.	.	.	.	.	.	.	.	4ff\	4bbn\
.	.	.	.	.	16ff\	.	.	.	.	.	.	.	.	.	.	.	.	.	.	.	.	.	.	.	.
8D\J	.	.	8g\J	.	16ff\	.	8bb\J	.	.	.	.	.	.	.	.	.	.	.	.	.	.	.	.	.	.
.	.	.	.	.	16ff\JJ	.	.	.	.	.	.	.	.	.	.	.	.	.	.	.	.	.	.	.	.
*Xtremolo	*	*	*Xtremolo	*	*Xtremolo	*	*	*	*	*	*	*	*	*	*	*	*	*	*	*	*	*	*	*	*
!	!	!	!	!	!LO:LB:g=original	!	!	!	!	!	!	!	!	!	!	!	!	!	!	!	!	!	!	!	!
=17	=17	=17	=17	=17	=17	=17	=17	=17	=17	=17	=17	=17	=17	=17	=17	=17	=17	=17	=17	=17	=17	=17	=17	=17	=17
4C/	.	.	4g\	.	4ee\	.	16ccc\LL	.	1ryy	4C/	-tris	.	4G/	-tris	.	4cc\	est	.	4ee\	-lum	.	4c/	4c/	4ee\	4ccc\
*	*	*	*	*	*	*	*	*	*	*	*	*	*	*	*	*	*	*	*	*Xij	*	*	*	*	*
.	.	.	.	.	.	.	16ccc\	.	.	.	.	.	.	.	.	.	.	.	.	.	.	.	.	.	.
.	.	.	.	.	.	.	16ccc\	.	.	.	.	.	.	.	.	.	.	.	.	.	.	.	.	.	.
.	.	.	.	.	.	.	16ccc\JJ	.	.	.	.	.	.	.	.	.	.	.	.	.	.	.	.	.	.
*	*	*	*	*	*	*	*tremolo	*	*	*	*	*	*	*	*	*	*	*	*	*	*	*	*	*	*
4r	.	.	4r	.	4r	.	16bbn\LL	.	.	4r	.	.	4r	.	.	4r	.	.	4r	.	.	4r	4r	4r	4r
.	.	.	.	.	.	.	16bbn\	.	.	.	.	.	.	.	.	.	.	.	.	.	.	.	.	.	.
.	.	.	.	.	.	.	16bbn\	.	.	.	.	.	.	.	.	.	.	.	.	.	.	.	.	.	.
.	.	.	.	.	.	.	16bbn\JJ	.	.	.	.	.	.	.	.	.	.	.	.	.	.	.	.	.	.
!	!	!	!LO:LB:g=original	!	!	!	!	!	!	!	!	!	!	!	!	!	!	!	!	!	!	!	!	!	!
4r	.	.	4r	.	4r	.	16aa\LL	.	.	4r	.	.	4r	.	.	4r	.	.	4r	.	.	2r	2r	4r	4r
.	.	.	.	.	.	.	16aa\	.	.	.	.	.	.	.	.	.	.	.	.	.	.	.	.	.	.
.	.	.	.	.	.	.	16aa\	.	.	.	.	.	.	.	.	.	.	.	.	.	.	.	.	.	.
.	.	.	.	.	.	.	16aa\JJ	.	.	.	.	.	.	.	.	.	.	.	.	.	.	.	.	.	.
4c\	5 3	.	4c/	.	4ee\	.	16gg\LL	.	.	4c\	et	.	4e\	et	.	4a\	ven-	.	4ee\	et	.	.	.	4ee\	4gg\
.	.	.	.	.	.	.	16gg\	.	.	.	.	.	.	.	.	.	.	.	.	.	.	.	.	.	.
.	.	.	.	.	.	.	16gg\	.	.	.	.	.	.	.	.	.	.	.	.	.	.	.	.	.	.
.	.	.	.	.	.	.	16gg\JJ	.	.	.	.	.	.	.	.	.	.	.	.	.	.	.	.	.	.
*	*	*	*	*	*	*	*Xtremolo	*	*	*	*	*	*	*	*	*	*	*	*	*	*	*	*	*	*
!	!	!	!	!	!	!	!	!	!	!LO:LB:g=original	!	!	!	!	!	!	!	!	!	!	!	!	!	!	!
=18	=18	=18	=18	=18	=18	=18	=18	=18	=18	=18	=18	=18	=18	=18	=18	=18	=18	=18	=18	=18	=18	=18	=18	=18	=18
*tremolo	*	*	*tremolo	*	*tremolo	*	*	*	*	*	*	*	*	*	*	*	*	*	*	*	*	*	*	*	*
8d\L	#	.	8A/L	.	16dd 16d/LL	.	(16ff#X\LL	.	1ryy	2d\	i-	.	2d\	i-	.	2a\	-tu-	.	2dd\	i-	.	4A/	4a\	[<1dd	1ff#X
.	.	.	.	.	16dd 16d/	.	16gg\	.	.	.	.	.	.	.	.	.	.	.	.	.	.	.	.	.	.
8d\	.	.	8A/	.	16dd 16d/	.	16aa\)	.	.	.	.	.	.	.	.	.	.	.	.	.	.	.	.	.	.
.	.	.	.	.	16dd 16d/	.	16gg\JJ	.	.	.	.	.	.	.	.	.	.	.	.	.	.	.	.	.	.
8d\	.	.	8A/	.	16dd 16d/	.	16ff#\LL	.	.	.	.	.	.	.	.	.	.	.	.	.	.	4A/	8a\L	.	.
.	.	.	.	.	16dd 16d/	.	(16gg\	.	.	.	.	.	.	.	.	.	.	.	.	.	.	.	.	.	.
8d\J	.	.	8A/J	.	16dd 16d/	.	16aa\)	.	.	.	.	.	.	.	.	.	.	.	.	.	.	.	8a\J	.	.
.	.	.	.	.	16dd 16d/JJ	.	16gg\JJ	.	.	.	.	.	.	.	.	.	.	.	.	.	.	.	.	.	.
8c\L	#4 2	.	8A/L	.	16dd 16d/LL	.	(8ff#X\L	.	.	2c\	-te-	.	2d\	-te-	.	2a\	-rus	.	2dd\	-te-	.	4A/	4a\	.	.
.	.	.	.	.	16dd 16d/	.	.	.	.	.	.	.	.	.	.	.	.	.	.	.	.	.	.	.	.
8c\	.	.	8A/	.	16dd 16d/	.	8dd\)	.	.	.	.	.	.	.	.	.	.	.	.	.	.	.	.	.	.
.	.	.	.	.	16dd 16d/	.	.	.	.	.	.	.	.	.	.	.	.	.	.	.	.	.	.	.	.
8c\	.	.	8A/	.	16dd 16d/	.	8ff#\|	.	.	.	.	.	.	.	.	.	.	.	.	.	.	4r	4r	.	.
.	.	.	.	.	16dd 16d/	.	.	.	.	.	.	.	.	.	.	.	.	.	.	.	.	.	.	.	.
8c\J	.	.	8A/J	.	16dd 16d/	.	8ff#\J|	.	.	.	.	.	.	.	.	.	.	.	.	.	.	.	.	.	.
.	.	.	.	.	16dd 16d/JJ	.	.	.	.	.	.	.	.	.	.	.	.	.	.	.	.	.	.	.	.
!	!	!	!	!	!	!	!LO:LB:g=original	!	!	!	!	!	!	!	!	!	!	!	!	!	!	!	!LO:LB:g=original	!	!
=19	=19	=19	=19	=19	=19	=19	=19	=19	=19	=19	=19	=19	=19	=19	=19	=19	=19	=19	=19	=19	=19	=19	=19	=19	=19
8Bn\L	6	.	8Bn/L	.	16dd 16d/LL	.	(16gg\LL	.	1ryy	2Bn\	-rum	.	2d\	-rum	.	2g\	est	.	2dd\	-rum	.	4g\	4g\	1dd_<	1gg
.	.	.	.	.	16dd 16d/	.	16aa\	.	.	.	.	.	.	.	.	.	.	.	.	.	.	.	.	.	.
8Bn\	.	.	8Bn/	.	16dd 16d/	.	16bbn\)	.	.	.	.	.	.	.	.	.	.	.	.	.	.	.	.	.	.
.	.	.	.	.	16dd 16d/	.	16aa\JJ	.	.	.	.	.	.	.	.	.	.	.	.	.	.	.	.	.	.
8Bn\	.	.	8Bn/	.	16dd 16d/	.	16gg\LL	.	.	.	.	.	.	.	.	.	.	.	.	.	.	4g\	8g\L	.	.
.	.	.	.	.	16dd 16d/	.	16aa\	.	.	.	.	.	.	.	.	.	.	.	.	.	.	.	.	.	.
8Bn\J	.	.	8Bn/J	.	16dd 16d/	.	16bb\	.	.	.	.	.	.	.	.	.	.	.	.	.	.	.	8g\J	.	.
.	.	.	.	.	16dd 16d/JJ	.	16aa\JJ	.	.	.	.	.	.	.	.	.	.	.	.	.	.	.	.	.	.
!	!	!	!	!	!	!	!LO:TX:a:t=P:problem:mixed beam	!	!	!	!	!	!	!	!	!	!	!	!	!	!	!	!	!	!
8B\L	.	.	8B/L	.	16dd 16d/LL	.	8gg\L	.	.	2B\	ven-	.	2d\	ven-	.	2g\	cum	.	2dd\	ven-	.	4g\	4g\	.	.
.	.	.	.	.	16dd 16d/	.	.	.	.	.	.	.	.	.	.	.	.	.	.	.	.	.	.	.	.
8B\	.	.	8B/	.	16dd 16d/	.	8g/	.	.	.	.	.	.	.	.	.	.	.	.	.	.	.	.	.	.
.	.	.	.	.	16dd 16d/	.	.	.	.	.	.	.	.	.	.	.	.	.	.	.	.	.	.	.	.
8B\	.	.	8B/	.	16dd 16d/	.	8gg\	.	.	.	.	.	.	.	.	.	.	.	.	.	.	4r	4r	.	.
.	.	.	.	.	16dd 16d/	.	.	.	.	.	.	.	.	.	.	.	.	.	.	.	.	.	.	.	.
8B\J	.	.	8B/J	.	16dd 16d/	.	8gg\J	.	.	.	.	.	.	.	.	.	.	.	.	.	.	.	.	.	.
.	.	.	.	.	16dd 16d/JJ	.	.	.	.	.	.	.	.	.	.	.	.	.	.	.	.	.	.	.	.
!	!	!	!	!	!	!	!	!	!	!	!	!	!LO:LB:g=original	!	!	!	!	!	!	!	!	!	!	!	!
=20	=20	=20	=20	=20	=20	=20	=20	=20	=20	=20	=20	=20	=20	=20	=20	=20	=20	=20	=20	=20	=20	=20	=20	=20	=20
8c\L	#4 2	.	8A/L	.	16dd 16d/LL	.	16ff\LL	.	1ryy	2.c\	-tu-	.	2.d\	-tu-	.	2.f#X\	glo-	.	2.dd\	-tu-	.	4A/	1a	1dd]	1ff
.	.	.	.	.	16dd 16d/	.	(16gg\	.	.	.	.	.	.	.	.	.	.	.	.	.	.	.	.	.	.
8c\	.	.	8A/	.	16dd 16d/	.	16aa\	.	.	.	.	.	.	.	.	.	.	.	.	.	.	.	.	.	.
.	.	.	.	.	16dd 16d/	.	16gg\JJ)	.	.	.	.	.	.	.	.	.	.	.	.	.	.	.	.	.	.
8c\	.	.	8A/	.	16dd 16d/	.	16ff\LL	.	.	.	.	.	.	.	.	.	.	.	.	.	.	4A/	.	.	.
.	.	.	.	.	16dd 16d/	.	(16gg\	.	.	.	.	.	.	.	.	.	.	.	.	.	.	.	.	.	.
8c\J	.	.	8A/J	.	16dd 16d/	.	16aa\)	.	.	.	.	.	.	.	.	.	.	.	.	.	.	.	.	.	.
.	.	.	.	.	16dd 16d/JJ	.	16gg\JJ	.	.	.	.	.	.	.	.	.	.	.	.	.	.	.	.	.	.
*	*	*	*Xtremolo	*	*	*	*	*	*	*	*	*	*	*	*	*	*	*	*	*	*	*	*	*	*
!	!	!	!LO:TX:a:t=P:problem:mixed beam	!	!	!	!	!	!	!	!	!	!	!	!	!	!	!	!	!	!	!	!	!	!
8c\L	.	.	8A/L	.	16dd 16d/LL	.	(8ff#X\L	.	.	.	.	.	.	.	.	.	.	.	.	.	.	4A/	.	.	.
.	.	.	.	.	16dd 16d/	.	.	.	.	.	.	.	.	.	.	.	.	.	.	.	.	.	.	.	.
8c\	.	.	8A/	.	16dd 16d/	.	8dd\)	.	.	.	.	.	.	.	.	.	.	.	.	.	.	.	.	.	.
.	.	.	.	.	16dd 16d/	.	.	.	.	.	.	.	.	.	.	.	.	.	.	.	.	.	.	.	.
8c\	.	.	8a\	.	16dd 16d/	.	8ff#\|	.	.	4c\	-rus	.	4d\	-rus	.	4f#\	-ri-	.	4dd\	-rus	.	4r	.	.	.
.	.	.	.	.	16dd 16d/	.	.	.	.	.	.	.	.	.	.	.	.	.	.	.	.	.	.	.	.
8c\J	.	.	8a\J	.	16dd 16d/	.	8ff#\J|	.	.	.	.	.	.	.	.	.	.	.	.	.	.	.	.	.	.
.	.	.	.	.	16dd 16d/JJ	.	.	.	.	.	.	.	.	.	.	.	.	.	.	.	.	.	.	.	.
*Xtremolo	*	*	*	*	*Xtremolo	*	*	*	*	*	*	*	*	*	*	*	*	*	*	*	*	*	*	*	*
=21	=21	=21	=21	=21	=21	=21	=21	=21	=21	=21	=21	=21	=21	=21	=21	=21	=21	=21	=21	=21	=21	=21	=21	=21	=21
*	*	*	*	*	*	*	*^	*	*	*	*	*	*	*	*	*	*	*	*	*	*	*	*	*	*
!	!	!	!	!	!LO:SIC:v:s=16bn\LL	!	!	!	!	!	!	!	!	!	!	!	!	!	!	!	!	!	!	!	!	!
4Bn\	6	.	16g\LL	.	16b-\LL	.	4gg/	4bn\	.	1ryy	4Bn\	est	.	4d\	est.	.	4g\	-a	.	4dd\	e(st).	.	4g\	4g\	4dd\	4gg\
.	.	.	16a\	.	16cc\	.	.	.	.	.	.	.	.	.	.	.	.	.	.	.	.	.	.	.	.	.
.	.	.	16b-\	.	16dd\	.	.	.	.	.	.	.	.	.	.	.	.	.	.	.	.	.	.	.	.	.
.	.	.	16a\JJ	.	16cc\JJ	.	.	.	.	.	.	.	.	.	.	.	.	.	.	.	.	.	.	.	.	.
!	!	!	!	!	!LO:SIC:v:s=16bn\LL	!	!	!	!	!	!	!	!	!	!	!	!	!	!	!	!	!	!	!	!	!
4G\	.	.	16g\LL	.	16b-\LL	.	4gg/	4b\	.	.	4r	.	.	4r	.	.	4r	.	.	4r	.	.	4g\	4g\	4bn\	4gg\
.	.	.	16a\	.	16cc\	.	.	.	.	.	.	.	.	.	.	.	.	.	.	.	.	.	.	.	.	.
.	.	.	16b-\	.	16dd\	.	.	.	.	.	.	.	.	.	.	.	.	.	.	.	.	.	.	.	.	.
.	.	.	16a\JJ	.	16cc\JJ	.	.	.	.	.	.	.	.	.	.	.	.	.	.	.	.	.	.	.	.	.
!	!	!	!LO:TX:a:t=P:problem:mixed beam	!	!LO:SIC:v:s=8bn/	!LO:DY:b:t=p.	!	!	!	!	!	!	!	!	!	!	!	!	!	!	!	!	!	!	!	!
4G\	.	.	8g\L	.	8b-/	p	4gg/	4b\	.	.	2r	.	.	2r	.	.	2r	.	.	2r	.	.	4g\	4g\	4b\	4gg\
.	.	.	8G/	.	4g/	.	.	.	.	.	.	.	.	.	.	.	.	.	.	.	.	.	.	.	.	.
!	!	!LO:DY:b:t=po	!	!	!	!	!	!	!	!	!	!	!	!	!	!	!	!	!	!	!	!	!	!	!	!
4f\	.	p	8G/	.	.	.	4r	4ryy	.	.	.	.	.	.	.	.	.	.	.	.	.	.	4r	4r	4r	4r
.	.	.	8G/J	.	[8g/	.	.	.	.	.	.	.	.	.	.	.	.	.	.	.	.	.	.	.	.	.
*	*	*	*	*	*	*	*v	*v	*	*	*	*	*	*	*	*	*	*	*	*	*	*	*	*	*	*
!LO:LB:g=original	!	!	!	!	!	!	!	!	!	!	!	!	!	!	!	!	!	!	!LO:LB:g=original	!	!	!LO:LB:g=original	!	!	!
=22	=22	=22	=22	=22	=22	=22	=22	=22	=22	=22	=22	=22	=22	=22	=22	=22	=22	=22	=22	=22	=22	=22	=22	=22	=22
!LO:TX:b:t=Violone	!	!	!	!LO:DY:b:t=po	!	!	!	!LO:DY:a	!	!	!	!LO:DY:a:t=p.	!	!	!	!	!	!LO:DY:a:t=po	!LO:TX:a:t=Solo	!	!LO:DY:a:t=po	!	!	!	!
2e\	.	.	2e\	p	8g/]	.	8r	p	1ryy	2E\	Ju-	p	00r	.	.	2.g\	Ju-	p	2.g\	Ju-	p	00r	00r	00r	00r
.	.	.	.	.	4g/	.	8gg'\L	.	.	.	.	.	.	.	.	.	.	.	.	.	.	.	.	.	.
.	.	.	.	.	.	.	8gg'\	.	.	.	.	.	.	.	.	.	.	.	.	.	.	.	.	.	.
.	.	.	.	.	4g/	.	8gg'\J	.	.	.	.	.	.	.	.	.	.	.	.	.	.	.	.	.	.
2c\	.	.	8f\L	.	.	.	(8aa\L	.	.	2c\	-di-	.	.	.	.	.	.	.	.	.	.	.	.	.	.
.	.	.	8e\	.	4g/	.	8gg\	.	.	.	.	.	.	.	.	.	.	.	.	.	.	.	.	.	.
.	.	.	8d\	.	.	.	8ff\)	.	.	.	.	.	.	.	.	4g\	-di-	.	4ee\	-di-	.	.	.	.	.
.	.	.	8c\J	.	[8g/	.	8ee\J	.	.	.	.	.	.	.	.	.	.	.	.	.	.	.	.	.	.
!	!	!	!	!	!	!	!	!	!	!	!	!	!	!	!	!LO:LB:g=original	!	!	!	!	!	!	!	!	!
=23	=23	=23	=23	=23	=23	=23	=23	=23	=23	=23	=23	=23	=23	=23	=23	=23	=23	=23	=23	=23	=23	=23	=23	=23	=23
2Bn\	.	.	8c/L	.	8g/]	.	8ee\L	.	1ryy	2Bn\	-ca-	.	.	.	.	2g\	-ca-	.	8ee\L	-ca-	.	.	.	.	.
.	.	.	8Bn/	.	4g/	.	8dd\	.	.	.	.	.	.	.	.	.	.	.	8dd\	.	.	.	.	.	.
.	.	.	8A/	.	.	.	8cc#X\	.	.	.	.	.	.	.	.	.	.	.	8cc#X\	.	.	.	.	.	.
.	.	.	8B/J	.	4g/	.	8dd\J	.	.	.	.	.	.	.	.	.	.	.	8dd\J	.	.	.	.	.	.
*	*	*	*	*	*	*	*2\right	*	*	*	*	*	*	*	*	*	*	*	*	*	*	*	*	*	*
8G\L	.	.	2B/	.	.	.	2dd\	.	.	4G\	-re	.	.	.	.	2g\	-re	.	2dd\	-re	.	.	.	.	.
8A\	.	.	.	.	4g/	.	.	.	.	.	.	.	.	.	.	.	.	.	.	.	.	.	.	.	.
8B\	.	.	.	.	.	.	.	.	.	4r	.	.	.	.	.	.	.	.	.	.	.	.	.	.	.
8A\J	.	.	.	.	[8g/	.	.	.	.	.	.	.	.	.	.	.	.	.	.	.	.	.	.	.	.
=24	=24	=24	=24	=24	=24	=24	=24	=24	=24	=24	=24	=24	=24	=24	=24	=24	=24	=24	=24	=24	=24	=24	=24	=24	=24
2G\	.	.	8r	.	8g/]	.	8r	.	1ryy	2G\	vi-	.	.	.	.	2g\	vi-	.	2dd\	vi-	.	.	.	.	.
.	.	.	8B-\L	.	4g/	.	8dd\L	.	.	.	.	.	.	.	.	.	.	.	.	.	.	.	.	.	.
.	.	.	8d\	.	.	.	8dd\	.	.	.	.	.	.	.	.	.	.	.	.	.	.	.	.	.	.
.	.	.	8d\J	.	4g/	.	8ff\J	.	.	.	.	.	.	.	.	.	.	.	.	.	.	.	.	.	.
!	!	!	!LO:LB:g=original	!	!	!	!	!	!	!	!	!	!	!	!	!	!	!	!	!	!	!	!	!	!
2Bn\	.	.	8e\L	.	.	.	(8gg\L	.	.	4Bn\	-vos	.	.	.	.	4g\	-vos	.	4dd\	-vos	.	.	.	.	.
.	.	.	8d\	.	4g/yy	.	8ff\	.	.	.	.	.	.	.	.	.	.	.	.	.	.	.	.	.	.
.	.	.	8c\	.	.	.	8ee\)	.	.	4B\	et	.	.	.	.	4g\	et	.	4ff\	et	.	.	.	.	.
.	.	.	8B-\J	.	[8g/	.	8dd\J	.	.	.	.	.	.	.	.	.	.	.	.	.	.	.	.	.	.
!	!	!	!	!	!LO:LB:g=original	!	!	!	!	!	!	!	!	!	!	!	!	!	!	!	!	!	!	!	!
=25	=25	=25	=25	=25	=25	=25	=25	=25	=25	=25	=25	=25	=25	=25	=25	=25	=25	=25	=25	=25	=25	=25	=25	=25	=25
2c\	.	.	8B-/L	.	8g/]	.	8ff\L	.	1ryy	4.c\	mor-	.	.	.	.	2.g\	mor-	.	8ff\L	mor-	.	.	.	.	.
.	.	.	8A/	.	4g/	.	8ee\	.	.	.	.	.	.	.	.	.	.	.	8ee\	.	.	.	.	.	.
.	.	.	8G/	.	.	.	8dd\	.	.	.	.	.	.	.	.	.	.	.	8dd\	.	.	.	.	.	.
.	.	.	8A/J	.	4g/	.	8cc\J	.	.	8C/	-tu-	.	.	.	.	.	.	.	8cc\J	.	.	.	.	.	.
!	!	!	!	!	!	!	!LO:LB:g=original	!	!	!	!	!	!	!	!	!	!	!	!	!	!	!	!	!	!
2e\	.	.	2A/	.	.	.	8bn\L	.	.	4E\	-os	.	.	.	.	.	.	.	4.cc\	.	.	.	.	.	.
.	.	.	.	.	4g/yy	.	8cc\	.	.	.	.	.	.	.	.	.	.	.	.	.	.	.	.	.	.
.	.	.	.	.	.	.	8dd\	.	.	4r	.	.	.	.	.	4g\	-tu-	.	.	.	.	.	.	.	.
.	.	.	.	.	[8g/	.	8cc\J	.	.	.	.	.	.	.	.	.	.	.	8cc\	-tu-	.	.	.	.	.
!	!	!	!	!	!	!	!	!	!	!LO:LB:g=original	!	!	!	!	!	!	!	!	!	!	!	!	!	!	!
=26	=26	=26	=26	=26	=26	=26	=26	=26	=26	=26	=26	=26	=26	=26	=26	=26	=26	=26	=26	=26	=26	=26	=26	=26	=26
2d\	.	.	2c\	.	8g/]	.	4b-\	.	1ryy	1r	.	.	00r	.	.	4g\	-os	.	4bn\	-os	.	00r	00r	00r	00r
.	.	.	.	.	4g/	.	.	.	.	.	.	.	.	.	.	.	.	.	.	.	.	.	.	.	.
.	.	.	.	.	.	.	2ff\	.	.	.	.	.	.	.	.	4r	.	.	4r	.	.	.	.	.	.
.	.	.	.	.	4g/	.	.	.	.	.	.	.	.	.	.	.	.	.	.	.	.	.	.	.	.
2c\	.	.	2e\	.	.	.	.	.	.	.	.	.	.	.	.	2r	.	.	2r	.	.	.	.	.	.
.	.	.	.	.	4g/	.	.	.	.	.	.	.	.	.	.	.	.	.	.	.	.	.	.	.	.
.	.	.	.	.	.	.	4ee-X\	.	.	.	.	.	.	.	.	.	.	.	.	.	.	.	.	.	.
.	.	.	.	.	[8g/	.	.	.	.	.	.	.	.	.	.	.	.	.	.	.	.	.	.	.	.
=27	=27	=27	=27	=27	=27	=27	=27	=27	=27	=27	=27	=27	=27	=27	=27	=27	=27	=27	=27	=27	=27	=27	=27	=27	=27
*	*	*	*	*	*	*	*	*	*	*	*	*	*	*	*	*	*ij	*	*	*	*	*	*	*	*
2f\	.	.	2.d\	.	8g/]	.	4ee-X\	.	1ryy	(2F\	vi-	.	.	.	.	1g	vi-	.	4ee-X\	vi-	.	.	.	.	.
.	.	.	.	.	4g/	.	.	.	.	.	.	.	.	.	.	.	.	.	.	.	.	.	.	.	.
.	.	.	.	.	.	.	2dd\	.	.	.	.	.	.	.	.	.	.	.	2dd\	.	.	.	.	.	.
.	.	.	.	.	4g/	.	.	.	.	.	.	.	.	.	.	.	.	.	.	.	.	.	.	.	.
2e-X\	.	.	.	.	.	.	.	.	.	2E-X\)	.	.	.	.	.	.	.	.	.	.	.	.	.	.	.
.	.	.	.	.	4g/	.	.	.	.	.	.	.	.	.	.	.	.	.	.	.	.	.	.	.	.
.	.	.	4c\	.	.	.	4cc\	.	.	.	.	.	.	.	.	.	.	.	4cc\	.	.	.	.	.	.
.	.	.	.	.	[8g/	.	.	.	.	.	.	.	.	.	.	.	.	.	.	.	.	.	.	.	.
!	!	!	!	!	!	!	!	!	!	!	!	!	!	!	!	!	!	!	!LO:LB:g=original	!	!	!	!	!	!
=28	=28	=28	=28	=28	=28	=28	=28	=28	=28	=28	=28	=28	=28	=28	=28	=28	=28	=28	=28	=28	=28	=28	=28	=28	=28
2d\	.	.	2.f\	.	8g/]	.	4b-\	.	1ryy	2D/	-vos	.	.	.	.	2g\	-vos	.	4b-\	-vos	.	.	.	.	.
.	.	.	.	.	4g/	.	.	.	.	.	.	.	.	.	.	.	.	.	.	.	.	.	.	.	.
.	.	.	.	.	.	.	2ff\	.	.	.	.	.	.	.	.	.	.	.	(2ff\	et	.	.	.	.	.
.	.	.	.	.	4g/	.	.	.	.	.	.	.	.	.	.	.	.	.	.	.	.	.	.	.	.
2c\	.	.	.	.	.	.	.	.	.	2C/	et	.	.	.	.	2g\	et	.	.	.	.	.	.	.	.
.	.	.	.	.	4g/	.	.	.	.	.	.	.	.	.	.	.	.	.	.	.	.	.	.	.	.
.	.	.	4e-X\	.	.	.	4ee\	.	.	.	.	.	.	.	.	.	.	.	4ee-X\)	.	.	.	.	.	.
.	.	.	.	.	[8g/	.	.	.	.	.	.	.	.	.	.	.	.	.	.	.	.	.	.	.	.
=29	=29	=29	=29	=29	=29	=29	=29	=29	=29	=29	=29	=29	=29	=29	=29	=29	=29	=29	=29	=29	=29	=29	=29	=29	=29
2F\	.	.	2.d\	.	8g/]	.	4ee\	.	1ryy	2F\	mor-	.	.	.	.	2.g\	mor-	.	4ee\	mor-	.	.	.	.	.
.	.	.	.	.	4g/	.	.	.	.	.	.	.	.	.	.	.	.	.	.	.	.	.	.	.	.
.	.	.	.	.	.	.	2dd\	.	.	.	.	.	.	.	.	.	.	.	2dd\	.	.	.	.	.	.
.	.	.	.	.	4g/	.	.	.	.	.	.	.	.	.	.	.	.	.	.	.	.	.	.	.	.
2E-X\	.	.	.	.	.	.	.	.	.	2E-X\	-tu-	.	.	.	.	.	.	.	.	.	.	.	.	.	.
.	.	.	.	.	4g/	.	.	.	.	.	.	.	.	.	.	.	.	.	.	.	.	.	.	.	.
.	.	.	4c\	.	.	.	4cc\	.	.	.	.	.	.	.	.	4g\	-tu-	.	4cc\	-tu-	.	.	.	.	.
.	.	.	.	.	8g/	.	.	.	.	.	.	.	.	.	.	.	.	.	.	.	.	.	.	.	.
=30	=30	=30	=30	=30	=30	=30	=30	=30	=30	=30	=30	=30	=30	=30	=30	=30	=30	=30	=30	=30	=30	=30	=30	=30	=30
4G\	.	.	4d\	.	4g/	.	4bn/	.	1ryy	4G\	-os	.	00r	.	.	4g\	-os	.	4bn\	-os	.	00r	00r	00r	00r
*	*	*	*	*	*	*	*	*	*	*	*	*	*	*	*	*	*Xij	*	*	*	*	*	*	*	*
4r	.	.	4r	.	4r	.	4g/	.	.	4r	.	.	.	.	.	4r	.	.	4r	.	.	.	.	.	.
2r	.	.	2r	.	2r	.	4g/	.	.	2r	.	.	.	.	.	2r	.	.	2r	.	.	.	.	.	.
.	.	.	.	.	.	.	4g/	.	.	.	.	.	.	.	.	.	.	.	.	.	.	.	.	.	.
!LO:LB:g=original	!	!	!	!	!	!	!	!	!	!	!	!	!	!	!	!	!	!	!	!	!	!	!	!	!
=31	=31	=31	=31	=31	=31	=31	=31	=31	=31	=31	=31	=31	=31	=31	=31	=31	=31	=31	=31	=31	=31	=31	=31	=31	=31
0r	.	.	4r	.	4r	.	2a-X/	.	1ryy	0r	.	.	.	.	.	0r	.	.	0r	.	.	.	.	.	.
.	.	.	4c/	.	4e/	.	.	.	.	.	.	.	.	.	.	.	.	.	.	.	.	.	.	.	.
.	.	.	4B-/	.	4d/	.	4g/	.	.	.	.	.	.	.	.	.	.	.	.	.	.	.	.	.	.
.	.	.	4An/	.	4c/	.	4f#X/	.	.	.	.	.	.	.	.	.	.	.	.	.	.	.	.	.	.
=32	=32	=32	=32	=32	=32	=32	=32	=32	=32	=32	=32	=32	=32	=32	=32	=32	=32	=32	=32	=32	=32	=32	=32	=32	=32
.	.	.	4B-/	.	4d/	.	4g/	.	1ryy	.	.	.	.	.	.	.	.	.	.	.	.	.	.	.	.
.	.	.	4c/	.	4e/	.	4a/	.	.	.	.	.	.	.	.	.	.	.	.	.	.	.	.	.	.
.	.	.	4B-/	.	4d/	.	4g/	.	.	.	.	.	.	.	.	.	.	.	.	.	.	.	.	.	.
.	.	.	4A/	.	4c/	.	4f#X/	.	.	.	.	.	.	.	.	.	.	.	.	.	.	.	.	.	.
=33	=33	=33	=33	=33	=33	=33	=33	=33	=33	=33	=33	=33	=33	=33	=33	=33	=33	=33	=33	=33	=33	=33	=33	=33	=33
1r	.	.	4G/	.	4Bn/	.	4g/	.	1ryy	1r	.	.	.	.	.	1r	.	.	1r	.	.	.	.	.	.
.	.	.	4G/	.	4B/	.	4g/	.	.	.	.	.	.	.	.	.	.	.	.	.	.	.	.	.	.
.	.	.	4G/	.	4B/	.	4g/	.	.	.	.	.	.	.	.	.	.	.	.	.	.	.	.	.	.
.	.	.	4r	.	4r	.	4r	.	.	.	.	.	.	.	.	.	.	.	.	.	.	.	.	.	.
!	!	!	!LO:LB:g=original	!	!LO:LB:g=original	!	!	!	!	!	!	!	!	!	!	!	!	!	!	!	!	!	!	!	!
=34	=34	=34	=34	=34	=34	=34	=34	=34	=34	=34	=34	=34	=34	=34	=34	=34	=34	=34	=34	=34	=34	=34	=34	=34	=34
*	*	*	*	*	*tremolo	*	*	*	*	*	*	*	*	*	*	*	*	*	*	*	*	*	*	*	*
!	!	!	!	!	!	!LO:DY:a:t=for.	!	!LO:DY:a:t=for&colon;	!	!	!	!	!	!	!	!	!	!	!	!	!	!	!	!	!
8G\L	3	.	8G/L	.	16g 16G/LL	f	8bn\L	f	1ryy	8G\L	Cu-	.	8d\L	Cu-	.	2.g\	Cu-	.	8bn\L	Cu-	.	4g\	4g\	4bn\	4gg\
.	.	.	.	.	16g 16G/	.	.	.	.	.	.	.	.	.	.	.	.	.	.	.	.	.	.	.	.
8A\	3	.	8A/	.	16g 16G/	.	8cc\	.	.	8A\	.	.	8c\J	.	.	.	.	.	8cc\	.	.	.	.	.	.
.	.	.	.	.	16g 16G/	.	.	.	.	.	.	.	.	.	.	.	.	.	.	.	.	.	.	.	.
8Bn\	3	.	8B-/	.	16g 16G/	.	8dd\	.	.	8Bn\	.	.	8Bn\L	-jus	.	.	.	.	8dd\	.	.	4r	4r	4r	4r
.	.	.	.	.	16g 16G/	.	.	.	.	.	.	.	.	.	.	.	.	.	.	.	.	.	.	.	.
8c\J	3	.	8c/J	.	16g 16G/	.	8ee\J	.	.	8c\J	.	.	8c\J	.	.	.	.	.	8ee\J	.	.	.	.	.	.
.	.	.	.	.	16g 16G/JJ	.	.	.	.	.	.	.	.	.	.	.	.	.	.	.	.	.	.	.	.
*	*	*	*tremolo	*	*	*	*	*	*	*	*	*	*	*	*	*	*	*	*	*	*	*	*	*	*
!	!	!	!	!	!	!	!LO:LB:g=original	!	!	!	!	!	!	!	!	!	!	!	!	!	!	!	!	!	!
8d\L	3	.	8d\L	.	16g 16G/LL	.	8ff\L	.	.	4d\	.	.	4B\	re-	.	.	.	.	4ff\	.	.	2g\	2g\	2dd\	4ff\
.	.	.	.	.	16g 16G/	.	.	.	.	.	.	.	.	.	.	.	.	.	.	.	.	.	.	.	.
8d\	.	.	8d\	.	16g 16G/	.	16ee\L	.	.	.	.	.	.	.	.	.	.	.	.	.	.	.	.	.	.
.	.	.	.	.	16g 16G/	.	16ff\JJ	.	.	.	.	.	.	.	.	.	.	.	.	.	.	.	.	.	.
8Bn\	6	.	8d\	.	16g 16G/	.	8gg\L	.	.	4B\	-jus	.	4d\	-gni	.	4g\	-jus	.	8gg\L	-jus	.	.	.	.	8gg\L
.	.	.	.	.	16g 16G/	.	.	.	.	.	.	.	.	.	.	.	.	.	.	.	.	.	.	.	.
8B\J	3	.	8d\J	.	16g 16G/	.	8ff\J	.	.	.	.	.	.	.	.	.	.	.	8ff\J	.	.	.	.	.	8ff\J
.	.	.	.	.	16g 16G/JJ	.	.	.	.	.	.	.	.	.	.	.	.	.	.	.	.	.	.	.	.
*	*	*	*Xtremolo	*	*	*	*	*	*	*	*	*	*	*	*	*	*	*	*	*	*	*	*	*	*
!	!	!	!	!	!	!	!	!	!	!	!	!	!	!	!	!	!	!	!	!	!	!	!	!LO:LB:g=original	!LO:LB:g=original
=35	=35	=35	=35	=35	=35	=35	=35	=35	=35	=35	=35	=35	=35	=35	=35	=35	=35	=35	=35	=35	=35	=35	=35	=35	=35
*tremolo	*	*	*	*	*	*	*	*	*	*	*	*	*	*	*	*	*	*	*	*	*	*	*	*	*
8c\L	.	.	2e\	.	16g 16G/LL	.	8ee\L	.	1ryy	2c\	Reg-	.	2c\	non	.	2g\	Re-	.	2een\	Re-	.	1c	1g	4ee\	8ee\L
.	.	.	.	.	16g 16G/	.	.	.	.	.	.	.	.	.	.	.	.	.	.	.	.	.	.	.	.
8c\	.	.	.	.	16g 16G/	.	8ff\	.	.	.	.	.	.	.	.	.	.	.	.	.	.	.	.	.	8ff\
.	.	.	.	.	16g 16G/	.	.	.	.	.	.	.	.	.	.	.	.	.	.	.	.	.	.	.	.
8c\	.	.	.	.	16g 16G/	.	8gg\	.	.	.	.	.	.	.	.	.	.	.	.	.	.	.	.	4r	8gg\
.	.	.	.	.	16g 16G/	.	.	.	.	.	.	.	.	.	.	.	.	.	.	.	.	.	.	.	.
8c\J	.	.	.	.	16g 16G/	.	8aa\J	.	.	.	.	.	.	.	.	.	.	.	.	.	.	.	.	.	8aa\J
.	.	.	.	.	16g 16G/JJ	.	.	.	.	.	.	.	.	.	.	.	.	.	.	.	.	.	.	.	.
*	*	*	*tremolo	*	*	*	*	*	*	*	*	*	*	*	*	*	*	*	*	*	*	*	*	*	*
8e\L	6	.	8c\L	.	16g 16G/LL	.	8gg\L	.	.	4E\	-ni	.	4c\	n(on)	.	4g\	-gni	.	4cc\	-gni	.	.	.	2cc\	8gg\L
.	.	.	.	.	16g 16G/	.	.	.	.	.	.	.	.	.	.	.	.	.	.	.	.	.	.	.	.
8e\	.	.	8c\	.	16g 16G/	.	8ddd\	.	.	.	.	.	.	.	.	.	.	.	.	.	.	.	.	.	8ccc\
.	.	.	.	.	16g 16G/	.	.	.	.	.	.	.	.	.	.	.	.	.	.	.	.	.	.	.	.
8e\	.	.	8c\	.	16g 16G/	.	8gg\	.	.	4E\	n(on)	.	4c\	n(on)	.	4g\	n(on)	.	4cc\	non	.	.	.	.	8gg\
.	.	.	.	.	16g 16G/	.	.	.	.	.	.	.	.	.	.	.	.	.	.	.	.	.	.	.	.
8e\J	.	.	8c\J	.	16g 16G/	.	8gg\J	.	.	.	.	.	.	.	.	.	.	.	.	.	.	.	.	.	8gg\J
.	.	.	.	.	16g 16G/JJ	.	.	.	.	.	.	.	.	.	.	.	.	.	.	.	.	.	.	.	.
*Xtremolo	*	*	*Xtremolo	*	*	*	*	*	*	*	*	*	*	*	*	*	*	*	*	*	*	*	*	*	*
!	!	!	!	!	!	!	!	!	!	!	!	!	!	!	!	!LO:PB:g=original	!	!	!LO:LB:g=original	!	!	!	!	!	!
=36	=36	=36	=36	=36	=36	=36	=36	=36	=36	=36	=36	=36	=36	=36	=36	=36	=36	=36	=36	=36	=36	=36	=36	=36	=36
8G\L	3	.	8G/L	.	16g 16G/LL	.	8bn\L	.	1ryy	8G\L	e-	.	8d\L	e-	.	2.g\	e-	.	8bn\L	e-	.	4g\	4g\	8bn\L	1gg
.	.	.	.	.	16g 16G/	.	.	.	.	.	.	.	.	.	.	.	.	.	.	.	.	.	.	.	.
8A\	3_	.	8A/	.	16g 16G/	.	8cc\	.	.	8A\	.	.	8c\J	.	.	.	.	.	8cc\J	.	.	.	.	8cc\	.
.	.	.	.	.	16g 16G/	.	.	.	.	.	.	.	.	.	.	.	.	.	.	.	.	.	.	.	.
8Bn\	.	.	8B-/	.	16g 16G/	.	8dd\	.	.	8B-\	-rit	.	8Bn\L	-rit	.	.	.	.	8dd\L	-rit	.	4r	4r	8dd\	.
.	.	.	.	.	16g 16G/	.	.	.	.	.	.	.	.	.	.	.	.	.	.	.	.	.	.	.	.
8c\J	.	.	8c/J	.	16g 16G/	.	8ee\J	.	.	8c\J	.	.	8c\J	.	.	.	.	.	8ee\J	.	.	.	.	8ee\J	.
.	.	.	.	.	16g 16G/JJ	.	.	.	.	.	.	.	.	.	.	.	.	.	.	.	.	.	.	.	.
*	*	*	*tremolo	*	*	*	*	*	*	*	*	*	*	*	*	*	*	*	*	*	*	*	*	*	*
!	!	!	!	!	!	!	!	!	!	!LO:LB:g=original	!	!	!	!	!	!	!	!	!	!	!	!	!	!	!
8d\L	.	.	8d\L	.	16g 16G/LL	.	8ff\L	.	.	4d\	fi-	.	4B\	fi-	.	.	.	.	4ff\	fi-	.	4g\	4g\	4ff\	.
.	.	.	.	.	16g 16G/	.	.	.	.	.	.	.	.	.	.	.	.	.	.	.	.	.	.	.	.
8d\	.	.	8d\	.	16g 16G/	.	16ee\L	.	.	.	.	.	.	.	.	.	.	.	.	.	.	.	.	.	.
.	.	.	.	.	16g 16G/	.	16ff\JJ	.	.	.	.	.	.	.	.	.	.	.	.	.	.	.	.	.	.
8B\	6	.	8d\	.	16g 16G/	.	8gg\L	.	.	4B-\	-nis	.	4d\	-nis	.	4g\	-rit	.	8gg\L	-nis	.	8g\L	8g\L	4dd\	.
.	.	.	.	.	16g 16G/	.	.	.	.	.	.	.	.	.	.	.	.	.	.	.	.	.	.	.	.
8B\J	5	.	8d\J	.	16g 16G/	.	8ff\J	.	.	.	.	.	.	.	.	.	.	.	8ff\J	.	.	8g\J	8g\J	.	.
.	.	.	.	.	16g 16G/JJ	.	.	.	.	.	.	.	.	.	.	.	.	.	.	.	.	.	.	.	.
*	*	*	*Xtremolo	*	*	*	*	*	*	*	*	*	*	*	*	*	*	*	*	*	*	*	*	*	*
=37	=37	=37	=37	=37	=37	=37	=37	=37	=37	=37	=37	=37	=37	=37	=37	=37	=37	=37	=37	=37	=37	=37	=37	=37	=37
8c\L	.	.	8c\L	.	16g 16G/LL	.	16ee\LL	.	1ryy	4c\	et	.	4c\	et	.	[2g\	fi-	.	4ee\	et	.	4c/	4g\	4ee\	4gg\
.	.	.	.	.	16g 16G/	.	16ee\	.	.	.	.	.	.	.	.	.	.	.	.	.	.	.	.	.	.
8c\	.	.	8c\	.	16g 16G/	.	16ee\	.	.	.	.	.	.	.	.	.	.	.	.	.	.	.	.	.	.
.	.	.	.	.	16g 16G/	.	16ee\JJ	.	.	.	.	.	.	.	.	.	.	.	.	.	.	.	.	.	.
*	*	*	*	*	*	*	*tremolo	*	*	*	*	*	*	*	*	*	*	*	*	*	*	*	*	*	*
8Bn\	6 5	.	8d\	.	16g 16G/	.	16ff\LL	.	.	4B-\	in	.	4d\	in	.	.	.	.	4ff\	in	.	4r	4r	4r	4r
.	.	.	.	.	16g 16G/	.	16ff\	.	.	.	.	.	.	.	.	.	.	.	.	.	.	.	.	.	.
8B\J	.	.	8d\J	.	16g 16G/	.	16ff\	.	.	.	.	.	.	.	.	.	.	.	.	.	.	.	.	.	.
.	.	.	.	.	16g 16G/	.	16ff\JJ	.	.	.	.	.	.	.	.	.	.	.	.	.	.	.	.	.	.
8c\L	.	.	8c/L	.	16g 16G/	.	16ee\LL	.	.	4c\	Spi-	.	4c\	Spi-	.	2g\]	.	.	4ee\	Spi-	.	2r	2r	4r	4r
.	.	.	.	.	16g 16G/	.	16ee\	.	.	.	.	.	.	.	.	.	.	.	.	.	.	.	.	.	.
8c\	.	.	8c/	.	16g 16G/	.	16ee\	.	.	.	.	.	.	.	.	.	.	.	.	.	.	.	.	.	.
.	.	.	.	.	16g 16G/JJ	.	16ee\JJ	.	.	.	.	.	.	.	.	.	.	.	.	.	.	.	.	.	.
*	*	*	*	*	*Xtremolo	*	*	*	*	*	*	*	*	*	*	*	*	*	*	*	*	*	*	*	*
8G#X\	6 5	.	8B-/	.	16d/LL	.	16dd\LL	.	.	8G#X\	-ri-	.	8Bn\	-ri-	.	.	.	.	8dd\	-ri-	.	.	.	4ee\	4ddd\
.	.	.	.	.	16d/	.	16dd\	.	.	.	.	.	.	.	.	.	.	.	.	.	.	.	.	.	.
8G#\J	.	.	8B-/J	.	16d/	.	16dd\	.	.	8G#\	-tum	.	8B\	-tu(m)	.	.	.	.	8dd\	-tum	.	.	.	.	.
.	.	.	.	.	16d/JJ	.	16dd\JJ	.	.	.	.	.	.	.	.	.	.	.	.	.	.	.	.	.	.
!	!	!	!	!	!	!	!	!	!	!	!	!	!LO:LB:g=original	!	!	!	!	!	!	!	!	!	!	!	!
=38	=38	=38	=38	=38	=38	=38	=38	=38	=38	=38	=38	=38	=38	=38	=38	=38	=38	=38	=38	=38	=38	=38	=38	=38	=38
*	*	*	*	*	*tremolo	*	*	*	*	*	*	*	*	*	*	*	*	*	*	*	*	*	*	*	*
8A\L	.	.	8A/L	.	16c/LL	.	16cc\LL	.	1ryy	4A\	S(anc)-	.	4A\	S(anc)-	.	[4g\	-nis	.	4cc\	S(anc)-	.	2r	2r	2.ee\	4ccc\
.	.	.	.	.	16c/	.	16cc\	.	.	.	.	.	.	.	.	.	.	.	.	.	.	.	.	.	.
8A\	.	.	8A/	.	16c/	.	16cc\	.	.	.	.	.	.	.	.	.	.	.	.	.	.	.	.	.	.
.	.	.	.	.	16c/	.	16cc\JJ	.	.	.	.	.	.	.	.	.	.	.	.	.	.	.	.	.	.
8G\	6 5	.	8B-/	.	16c/	.	16dd\LL	.	.	4G\	-tum	.	4B-\	-tum	.	4g\]	.	.	4dd\	-tum	.	.	.	.	4ddd\
.	.	.	.	.	16c/	.	16dd\	.	.	.	.	.	.	.	.	.	.	.	.	.	.	.	.	.	.
8G\J	.	.	8B-/J	.	16c/	.	16dd\	.	.	.	.	.	.	.	.	.	.	.	.	.	.	.	.	.	.
.	.	.	.	.	16c/	.	16dd\JJ	.	.	.	.	.	.	.	.	.	.	.	.	.	.	.	.	.	.
!	!	!	!LO:TX:a:t=P:problem:mixed beam	!	!	!	!	!	!	!	!	!	!	!	!	!	!	!	!	!	!	!	!	!	!
8A\L	.	.	8A/L	.	16c/	.	16cc\LL	.	.	4A\	Do-	.	4A\	Do-	.	4e\	et	.	4cc\	Do-	.	4r	4r	.	4ccc\
.	.	.	.	.	16c/	.	16cc\	.	.	.	.	.	.	.	.	.	.	.	.	.	.	.	.	.	.
8A\	.	.	8A/	.	16c/	.	16cc\	.	.	.	.	.	.	.	.	.	.	.	.	.	.	.	.	.	.
.	.	.	.	.	16c/JJ	.	16cc\JJ	.	.	.	.	.	.	.	.	.	.	.	.	.	.	.	.	.	.
8E\	.	.	8g\	.	16cc\LL	.	16bb-X\LL	.	.	8E\	-mi-	.	8c\	-mi-	.	4e\	in	.	8cc\	-mi-	.	4c/	4g\	4cc\	4bb-X\
.	.	.	.	.	16cc\	.	16bb-X\	.	.	.	.	.	.	.	.	.	.	.	.	.	.	.	.	.	.
8E\J	6 5	.	8g\J	.	16cc\	.	16bb-X\	.	.	8E\	-num	.	8c\	-num	.	.	.	.	8cc\	-num	.	.	.	.	.
.	.	.	.	.	16cc\JJ	.	16bb-X\JJ	.	.	.	.	.	.	.	.	.	.	.	.	.	.	.	.	.	.
*	*	*	*	*	*	*	*Xtremolo	*	*	*	*	*	*	*	*	*	*	*	*	*	*	*	*	*	*
!LO:LB:g=original	!	!	!	!	!	!	!	!	!	!	!	!	!	!	!	!	!	!	!	!	!	!	!LO:LB:g=original	!	!
=39	=39	=39	=39	=39	=39	=39	=39	=39	=39	=39	=39	=39	=39	=39	=39	=39	=39	=39	=39	=39	=39	=39	=39	=39	=39
8F\L	.	.	8f\L	.	16cc\LL	.	16aa\LL	.	1ryy	4F\	et	.	4c\	et	.	4e\	Spi-	.	4cc\	et	.	4f\	4a\	4cc\	4aa\
.	.	.	.	.	16cc\	.	16aa\	.	.	.	.	.	.	.	.	.	.	.	.	.	.	.	.	.	.
8F\	.	.	8f\	.	16cc\	.	16aa\	.	.	.	.	.	.	.	.	.	.	.	.	.	.	.	.	.	.
.	.	.	.	.	16cc\JJ	.	16aa\JJ	.	.	.	.	.	.	.	.	.	.	.	.	.	.	.	.	.	.
*	*	*	*	*	*	*	*tremolo	*	*	*	*	*	*	*	*	*	*	*	*	*	*	*	*	*	*
8c#X\	6 5	.	8e\	.	16a/LL	.	16gg\LL	.	.	4C#X/	vi-	.	4A\	vi-	.	8e\	-ri-	.	4ee\	vi-	.	4c/	4g\	4ee\	4gg\
.	.	.	.	.	16a/	.	16gg\	.	.	.	.	.	.	.	.	.	.	.	.	.	.	.	.	.	.
8c#\J	.	.	8e\J	.	16a/	.	16gg\	.	.	.	.	.	.	.	.	8e\	-tum	.	.	.	.	.	.	.	.
.	.	.	.	.	16a/	.	16gg\JJ	.	.	.	.	.	.	.	.	.	.	.	.	.	.	.	.	.	.
*	*	*	*tremolo	*	*	*	*	*	*	*	*	*	*	*	*	*	*	*	*	*	*	*	*	*	*
8d\L	.	.	8d\L	.	16a/	.	16ff\LL	.	.	4D\	-vi-	.	4A\	-vi-	.	4g\	S(anc)-	.	4ff\	-vi-	.	4f\	4f\	2dd\	2ff\
.	.	.	.	.	16a/	.	16ff\	.	.	.	.	.	.	.	.	.	.	.	.	.	.	.	.	.	.
8d\	.	.	8d\	.	16a/	.	16ff\	.	.	.	.	.	.	.	.	.	.	.	.	.	.	.	.	.	.
.	.	.	.	.	16a/JJ	.	16ff\	.	.	.	.	.	.	.	.	.	.	.	.	.	.	.	.	.	.
8Bn\	6 5	.	8d\	.	16g/LL	.	16ff\	.	.	4Bn\	-fi-	.	4d\	-fi-	.	4g\	-tum	.	4ff\	-fi-	.	4g\	4g\	.	.
.	.	.	.	.	16g/	.	16ff\	.	.	.	.	.	.	.	.	.	.	.	.	.	.	.	.	.	.
8B\J	.	.	8d\J	.	16g/	.	16ff\	.	.	.	.	.	.	.	.	.	.	.	.	.	.	.	.	.	.
.	.	.	.	.	16g/JJ	.	16ff\JJ	.	.	.	.	.	.	.	.	.	.	.	.	.	.	.	.	.	.
*	*	*	*Xtremolo	*	*	*	*Xtremolo	*	*	*	*	*	*	*	*	*	*	*	*	*	*	*	*	*	*
!	!	!	!	!	!	!	!	!	!	!	!	!	!	!	!	!	!	!	!LO:LB:g=original	!	!	!	!	!	!
=40	=40	=40	=40	=40	=40	=40	=40	=40	=40	=40	=40	=40	=40	=40	=40	=40	=40	=40	=40	=40	=40	=40	=40	=40	=40
8c\L	.	.	8c\L	.	16g/LL	.	16ee\LL	.	1ryy	4c\	-can-	.	4c\	-can-	.	4f\	Do-	.	4ee\	-can-	.	4c/	4g\	4cc\	4ee\
.	.	.	.	.	16g/	.	16ee\	.	.	.	.	.	.	.	.	.	.	.	.	.	.	.	.	.	.
8c\	.	.	8c\	.	16g/	.	16ee\	.	.	.	.	.	.	.	.	.	.	.	.	.	.	.	.	.	.
.	.	.	.	.	16g/JJ	.	16ee\JJ	.	.	.	.	.	.	.	.	.	.	.	.	.	.	.	.	.	.
!	!	!	!	!	!	!	!LO:LB:g=original	!	!	!	!	!	!	!	!	!	!	!	!	!	!	!	!	!	!
8A\	.	.	8a\	.	16ee\LL	.	16ccc\LL	.	.	4A\	-tem	.	4c\	-tem	.	8a\	-mi-	.	4ee\	-tem	.	4A/	4a\	4ee\	2ccc\
.	.	.	.	.	16ee\	.	16ccc\	.	.	.	.	.	.	.	.	.	.	.	.	.	.	.	.	.	.
8A\J	.	.	8a\J	.	16ee\	.	16ccc\	.	.	.	.	.	.	.	.	8a\	-num	.	.	.	.	.	.	.	.
.	.	.	.	.	16ee\JJ	.	16ccc\JJ	.	.	.	.	.	.	.	.	.	.	.	.	.	.	.	.	.	.
*	*	*	*	*	*	*	*tremolo	*	*	*	*	*	*	*	*	*	*	*	*	*	*	*	*	*	*
8F\L	6 5	.	8a\L	.	16dd\LL	.	16ccc\LL	.	.	4F\	qvi	.	4c\	qvi	.	4a\	et	.	4dd\	qvi	.	4f\	4a\	2dd\	.
.	.	.	.	.	16dd\	.	16ccc\	.	.	.	.	.	.	.	.	.	.	.	.	.	.	.	.	.	.
8F\	.	.	8a\	.	16dd\	.	16ccc\	.	.	.	.	.	.	.	.	.	.	.	.	.	.	.	.	.	.
.	.	.	.	.	16dd\	.	16ccc\JJ	.	.	.	.	.	.	.	.	.	.	.	.	.	.	.	.	.	.
8G\	n	.	8g\	.	16dd\	.	16bbn\LL	.	.	4G\	ex	.	4Bn\	ex	.	4g\	vi-	.	4dd\	ex	.	4g\	4g\	.	4bbn\
.	.	.	.	.	16dd\	.	16bbn\	.	.	.	.	.	.	.	.	.	.	.	.	.	.	.	.	.	.
8G\J	.	.	8g\J	.	16dd\	.	16bbn\	.	.	.	.	.	.	.	.	.	.	.	.	.	.	.	.	.	.
.	.	.	.	.	16dd\JJ	.	16bbn\JJ	.	.	.	.	.	.	.	.	.	.	.	.	.	.	.	.	.	.
*	*	*	*	*	*	*	*Xtremolo	*	*	*	*	*	*	*	*	*	*	*	*	*	*	*	*	*	*
!	!	!	!LO:LB:g=original	!	!	!	!	!	!	!	!	!	!	!	!	!	!	!	!	!	!	!	!	!	!
=41	=41	=41	=41	=41	=41	=41	=41	=41	=41	=41	=41	=41	=41	=41	=41	=41	=41	=41	=41	=41	=41	=41	=41	=41	=41
*tremolo	*	*	*tremolo	*	*	*	*	*	*	*	*	*	*	*	*	*	*	*	*	*	*	*	*	*	*
8C/L	.	.	8g\L	.	16ee\LL	.	8ccc\L	.	1ryy	2C/	Pa-	.	2c\	Pa-	.	8g\	-vi-	.	4ee\	Pa-	.	1c	1g	2ee\	2.ccc\
.	.	.	.	.	16ee\	.	.	.	.	.	.	.	.	.	.	.	.	.	.	.	.	.	.	.	.
8C/	.	.	8g\	.	16ee\	.	16cc\L	.	.	.	.	.	.	.	.	8g\	-fi-	.	.	.	.	.	.	.	.
.	.	.	.	.	16ee\	.	16dd\JJ	.	.	.	.	.	.	.	.	.	.	.	.	.	.	.	.	.	.
8C/	.	.	8g\	.	16ee\	.	8cc\L	.	.	.	.	.	.	.	.	4g\	-can-	.	4ee\	-tre	.	.	.	.	.
.	.	.	.	.	16ee\	.	.	.	.	.	.	.	.	.	.	.	.	.	.	.	.	.	.	.	.
8C/J	.	.	8g\J	.	16ee\	.	8cc\J	.	.	.	.	.	.	.	.	.	.	.	.	.	.	.	.	.	.
.	.	.	.	.	16ee\JJ	.	.	.	.	.	.	.	.	.	.	.	.	.	.	.	.	.	.	.	.
8E\L	6	.	8g\L	.	16cc\LL	.	8cc\L	.	.	2E\	-tre	.	2B-X\	-tre	.	4g\	-tem	.	4.cc\	fi-	.	.	.	2gg\	.
.	.	.	.	.	16cc\	.	.	.	.	.	.	.	.	.	.	.	.	.	.	.	.	.	.	.	.
8E\	.	.	8g\	.	16cc\	.	8ee\	.	.	.	.	.	.	.	.	.	.	.	.	.	.	.	.	.	.
.	.	.	.	.	16cc\	.	.	.	.	.	.	.	.	.	.	.	.	.	.	.	.	.	.	.	.
8E\	.	.	8g\	.	16cc\	.	8gg\	.	.	.	.	.	.	.	.	8g\	qvi	.	.	.	.	.	.	.	4bb-X\
.	.	.	.	.	16cc\	.	.	.	.	.	.	.	.	.	.	.	.	.	.	.	.	.	.	.	.
8E\J	-5	.	8g\J	.	16cc\	.	8bb-X\J	.	.	.	.	.	.	.	.	8g\	ex	.	8cc\	-li-	.	.	.	.	.
.	.	.	.	.	16cc\JJ	.	.	.	.	.	.	.	.	.	.	.	.	.	.	.	.	.	.	.	.
!	!	!	!	!	!	!	!	!	!	!	!	!	!	!	!	!LO:LB:g=original	!	!	!	!	!	!	!	!	!
=42	=42	=42	=42	=42	=42	=42	=42	=42	=42	=42	=42	=42	=42	=42	=42	=42	=42	=42	=42	=42	=42	=42	=42	=42	=42
8F\L	.	.	8f\L	.	16cc\LL	.	8bb-\L	.	1ryy	4.F\	Fi-	.	4.A/	Fi-	.	4a\	Pa-	.	2cc,<\	-o	.	2f\	2a\	2ff\	2aa\
.	.	.	.	.	16cc\	.	.	.	.	.	.	.	.	.	.	.	.	.	.	.	.	.	.	.	.
8F\	.	.	8f\	.	16cc\	.	8aa\	.	.	.	.	.	.	.	.	.	.	.	.	.	.	.	.	.	.
.	.	.	.	.	16cc\	.	.	.	.	.	.	.	.	.	.	.	.	.	.	.	.	.	.	.	.
8F\	.	.	8f\	.	16cc\	.	8gg\	.	.	.	.	.	.	.	.	4a\	-tre	.	.	.	.	.	.	.	.
.	.	.	.	.	16cc\	.	.	.	.	.	.	.	.	.	.	.	.	.	.	.	.	.	.	.	.
8F\J	.	.	8f\J	.	16cc\	.	8aa\J	.	.	8F\	-li-	.	8A/	-li-	.	.	.	.	.	.	.	.	.	.	.
.	.	.	.	.	16cc\JJ	.	.	.	.	.	.	.	.	.	.	.	.	.	.	.	.	.	.	.	.
!	!	!	!	!	!	!	!	!	!	!LO:LB:g=original	!	!	!	!	!	!	!	!	!	!	!	!	!	!	!
8F\L	6	.	8f\L	.	16a/LL	.	8gg\L	.	.	2F\	-o-	.	2A/	-o	.	4a\	fi-	.	4cc\	qve	.	2r	2r	2r	2r
.	.	.	.	.	16a/	.	.	.	.	.	.	.	.	.	.	.	.	.	.	.	.	.	.	.	.
8F\	.	.	8f\	.	16a/	.	8ff\	.	.	.	.	.	.	.	.	.	.	.	.	.	.	.	.	.	.
.	.	.	.	.	16a/	.	.	.	.	.	.	.	.	.	.	.	.	.	.	.	.	.	.	.	.
8F\	.	.	8f\	.	16a/	.	8ee\	.	.	.	.	.	.	.	.	8a\	-li-	.	4cc\	pro-	.	.	.	.	.
.	.	.	.	.	16a/	.	.	.	.	.	.	.	.	.	.	.	.	.	.	.	.	.	.	.	.
8F\J	.	.	8f\J	.	16a/	.	8dd\J	.	.	.	.	.	.	.	.	8a\	-o	.	.	.	.	.	.	.	.
.	.	.	.	.	16a/JJ	.	.	.	.	.	.	.	.	.	.	.	.	.	.	.	.	.	.	.	.
*Xtremolo	*	*	*Xtremolo	*	*	*	*	*	*	*	*	*	*	*	*	*	*	*	*	*	*	*	*	*	*
!	!	!	!	!	!	!	!	!	!	!	!	!	!	!	!	!	!	!	!	!	!	!LO:LB:g=original	!	!	!LO:LB:g=original
=43	=43	=43	=43	=43	=43	=43	=43	=43	=43	=43	=43	=43	=43	=43	=43	=43	=43	=43	=43	=43	=43	=43	=43	=43	=43
8C\L	.	.	8c\L	.	16e/LL	.	16cc\LL	.	1ryy	4C/	-que	.	4G/	que	.	4g\	que	.	2.cc\	-ce-	.	4r	4r	4r	4r
.	.	.	.	.	16e/	.	16dd\	.	.	.	.	.	.	.	.	.	.	.	.	.	.	.	.	.	.
8C\	.	.	8c\	.	16e/	.	16ee\	.	.	.	.	.	.	.	.	.	.	.	.	.	.	.	.	.	.
.	.	.	.	.	16e/	.	16dd\JJ	.	.	.	.	.	.	.	.	.	.	.	.	.	.	.	.	.	.
8E\	6	.	8e\	.	16e/	.	8cc\L	.	.	4E\	pro-	.	4e\	pro-	.	4g\	pro-	.	.	.	.	4c/	4g\	4ee\	2ccc\
.	.	.	.	.	16e/	.	.	.	.	.	.	.	.	.	.	.	.	.	.	.	.	.	.	.	.
8E\J	.	.	8e\J	.	16e/	.	8cc\J	.	.	.	.	.	.	.	.	.	.	.	.	.	.	.	.	.	.
.	.	.	.	.	16e/JJ	.	.	.	.	.	.	.	.	.	.	.	.	.	.	.	.	.	.	.	.
*	*	*	*	*	*Xtremolo	*	*	*	*	*	*	*	*	*	*	*	*	*	*	*	*	*	*	*	*
!LO:TX:a:t=P:problem:mixed beam	!	!	!LO:TX:a:t=P:problem:mixed beam	!	!LO:LB:g=original	!	!	!	!	!	!	!	!	!	!	!	!	!	!	!	!	!	!	!LO:LB:g=original	!
8G\L	6 4	.	8g\L	.	8e/L	.	8cc\L	.	.	4G\	-ce-	.	(4e\	-ce-	.	2g\	-ce-	.	.	.	.	4g\	4g\	4ee\	.
8G\	.	.	8g\	.	16d/L	.	16bn\L	.	.	.	.	.	.	.	.	.	.	.	.	.	.	.	.	.	.
.	.	.	.	.	16e/JJ	.	16cc\JJ	.	.	.	.	.	.	.	.	.	.	.	.	.	.	.	.	.	.
8GG/	5 3	.	8G/	.	8f/L	.	8dd\L	.	.	4GG/	.	.	4d\)	.	.	.	.	.	8dd\L	.	.	4g\	4g\	8ff\L	8ddd\L
8GG/J	.	.	8G/J	.	8d/J	.	8b\J	.	.	.	.	.	.	.	.	.	.	.	8bn\J	.	.	.	.	8dd\J	8bbn\J
=44	=44	=44	=44	=44	=44	=44	=44	=44	=44	=44	=44	=44	=44	=44	=44	=44	=44	=44	=44	=44	=44	=44	=44	=44	=44
4C/	.	.	4c/	.	4e 4G/	.	4cc 4e 4G/	.	1ryy	4C/	-dit	.	4c\	-dit	.	4g\	-dit	.	4cc\	-dit	.	4c/	4g\	4ee\	4ccc\
4C/	.	.	4c/	.	4e 4G/	.	4cc 4e 4G/	.	.	4r	.	.	4r	.	.	4r	.	.	4r	.	.	4c/	4g\	4ee\	4ccc\
4C/	.	.	4c/	.	4e 4G/	.	4cc 4e 4G/	.	.	2r	.	.	2r	.	.	2r	.	.	2r	.	.	4c/	4g\	4ee\	4ccc\
4r	.	.	4r	.	4r	.	4r	.	.	.	.	.	.	.	.	.	.	.	.	.	.	4r	4r	4r	4r
!LO:LB:g=original	!	!	!	!	!	!	!	!	!	!	!	!	!LO:LB:g=original	!	!	!	!	!	!	!	!	!	!	!	!
=45	=45	=45	=45	=45	=45	=45	=45	=45	=45	=45	=45	=45	=45	=45	=45	=45	=45	=45	=45	=45	=45	=45	=45	=45	=45
!	!	!LO:DY:b	!	!	!	!LO:DY:a:t=po	!	!	!	!	!	!	!	!	!	!	!	!	!	!	!	!	!	!	!
2A\	3	p	2f#X\	.	8d/	p	4r	.	1ryy	00r	.	.	4r	.	.	00r	.	.	00r	.	.	00r	00r	00r	00r
!	!	!	!	!	!	!	!	!LO:DY:t=Piano	!	!	!	!	!	!	!	!	!	!	!	!	!	!	!	!	!
.	.	.	.	.	4d/	.	.	p	.	.	.	.	.	.	.	.	.	.	.	.	.	.	.	.	.
!	!	!	!	!	!	!	!	!	!	!	!	!	!LO:TX:a:t=Solo	!	!	!	!	!	!	!	!	!	!	!	!
.	.	.	.	.	.	.	2cc\	.	.	.	.	.	2c\	qvi	.	.	.	.	.	.	.	.	.	.	.
.	.	.	.	.	4d/	.	.	.	.	.	.	.	.	.	.	.	.	.	.	.	.	.	.	.	.
2F#X\	5	.	2a\	.	.	.	.	.	.	.	.	.	.	.	.	.	.	.	.	.	.	.	.	.	.
.	.	.	.	.	4d/	.	.	.	.	.	.	.	.	.	.	.	.	.	.	.	.	.	.	.	.
.	.	.	.	.	.	.	[4a/	.	.	.	.	.	4A\	cum	.	.	.	.	.	.	.	.	.	.	.
.	.	.	.	.	[8d/	.	.	.	.	.	.	.	.	.	.	.	.	.	.	.	.	.	.	.	.
=46	=46	=46	=46	=46	=46	=46	=46	=46	=46	=46	=46	=46	=46	=46	=46	=46	=46	=46	=46	=46	=46	=46	=46	=46	=46
2G\	.	.	2d\	.	8d/]	.	4a/]	.	1ryy	.	.	.	4A\	Pa-	.	.	.	.	.	.	.	.	.	.	.
.	.	.	.	.	4d/	.	.	.	.	.	.	.	.	.	.	.	.	.	.	.	.	.	.	.	.
.	.	.	.	.	.	.	2b-X/yy	.	.	.	.	.	2B-\	-tre	.	.	.	.	.	.	.	.	.	.	.
.	.	.	.	.	4d/	.	.	.	.	.	.	.	.	.	.	.	.	.	.	.	.	.	.	.	.
2B-\	6	.	2B-/	.	.	.	.	.	.	.	.	.	.	.	.	.	.	.	.	.	.	.	.	.	.
.	.	.	.	.	4d/	.	.	.	.	.	.	.	.	.	.	.	.	.	.	.	.	.	.	.	.
!	!	!	!	!	!	!	!LO:LB:g=original	!	!	!	!	!	!	!	!	!	!	!	!	!	!	!	!	!	!
.	.	.	.	.	.	.	[4g/	.	.	.	.	.	4G/	et	.	.	.	.	.	.	.	.	.	.	.
.	.	.	.	.	[8d/	.	.	.	.	.	.	.	.	.	.	.	.	.	.	.	.	.	.	.	.
=47	=47	=47	=47	=47	=47	=47	=47	=47	=47	=47	=47	=47	=47	=47	=47	=47	=47	=47	=47	=47	=47	=47	=47	=47	=47
2c\	6	.	2c\	.	8d/]	.	4g/]	.	1ryy	.	.	.	4G/	Fi-	.	.	.	.	.	.	.	.	.	.	.
.	.	.	.	.	4d/	.	.	.	.	.	.	.	.	.	.	.	.	.	.	.	.	.	.	.	.
.	.	.	.	.	.	.	2a/	.	.	.	.	.	2A/	-li-	.	.	.	.	.	.	.	.	.	.	.
.	.	.	.	.	4d/	.	.	.	.	.	.	.	.	.	.	.	.	.	.	.	.	.	.	.	.
2A\	6\_	.	2d\	.	.	.	.	.	.	.	.	.	.	.	.	.	.	.	.	.	.	.	.	.	.
.	.	.	.	.	4d/	.	.	.	.	.	.	.	.	.	.	.	.	.	.	.	.	.	.	.	.
.	.	.	.	.	.	.	[4f#X/	.	.	.	.	.	4F#X/	-o	.	.	.	.	.	.	.	.	.	.	.
.	.	.	.	.	[8d/	.	.	.	.	.	.	.	.	.	.	.	.	.	.	.	.	.	.	.	.
=48	=48	=48	=48	=48	=48	=48	=48	=48	=48	=48	=48	=48	=48	=48	=48	=48	=48	=48	=48	=48	=48	=48	=48	=48	=48
4A\	.	.	4A/	.	8d/]	.	4f#X/]	.	1ryy	.	.	.	4F/	Si-	.	.	.	.	.	.	.	.	.	.	.
.	.	.	.	.	4d/	.	.	.	.	.	.	.	.	.	.	.	.	.	.	.	.	.	.	.	.
4B-\	6	.	4c/	.	.	.	4g/	.	.	.	.	.	4G/	.	.	.	.	.	.	.	.	.	.	.	.
.	.	.	.	.	4d/	.	.	.	.	.	.	.	.	.	.	.	.	.	.	.	.	.	.	.	.
4A\	6\	.	4A/	.	.	.	4a/	.	.	.	.	.	(4A\	-mul	.	.	.	.	.	.	.	.	.	.	.
.	.	.	.	.	4d/	.	.	.	.	.	.	.	.	.	.	.	.	.	.	.	.	.	.	.	.
4G\	.	.	4G/	.	.	.	4b-/	.	.	.	.	.	4B-\)	.	.	.	.	.	.	.	.	.	.	.	.
.	.	.	.	.	8d/	.	.	.	.	.	.	.	.	.	.	.	.	.	.	.	.	.	.	.	.
=49	=49	=49	=49	=49	=49	=49	=49	=49	=49	=49	=49	=49	=49	=49	=49	=49	=49	=49	=49	=49	=49	=49	=49	=49	=49
4F#X\	5_	.	1A	.	4d/	.	1cc	.	1ryy	00r	.	.	2.c\	a-	.	00r	.	.	00r	.	.	00r	00r	00r	00r
4D\	.	.	.	.	4f#X/	.	.	.	.	.	.	.	.	.	.	.	.	.	.	.	.	.	.	.	.
4E\	.	.	.	.	4g/	.	.	.	.	.	.	.	.	.	.	.	.	.	.	.	.	.	.	.	.
4F#\	X	.	.	.	4a/	.	.	.	.	.	.	.	4c\	-do-	.	.	.	.	.	.	.	.	.	.	.
=50	=50	=50	=50	=50	=50	=50	=50	=50	=50	=50	=50	=50	=50	=50	=50	=50	=50	=50	=50	=50	=50	=50	=50	=50	=50
2G\	-6	.	4G/	.	2b-/	.	4b-\	.	1ryy	.	.	.	(4B-\	-ra-	.	.	.	.	.	.	.	.	.	.	.
.	.	.	4g\	.	.	.	2ee-X\	.	.	.	.	.	4e-X\)	.	.	.	.	.	.	.	.	.	.	.	.
!	!	!	!	!	!LO:LB:g=original	!	!	!	!	!	!	!	!	!	!	!	!	!	!	!	!	!	!	!	!
2Fn\	7	.	2f\	.	2a/	.	.	.	.	.	.	.	4e-\	-tur	.	.	.	.	.	.	.	.	.	.	.
.	6	.	.	.	.	.	4dd\	.	.	.	.	.	4d\	et	.	.	.	.	.	.	.	.	.	.	.
!	!	!	!LO:LB:g=original	!	!	!	!	!	!	!	!	!	!	!	!	!	!	!	!	!	!	!	!	!	!
=51	=51	=51	=51	=51	=51	=51	=51	=51	=51	=51	=51	=51	=51	=51	=51	=51	=51	=51	=51	=51	=51	=51	=51	=51	=51
2E-X\	7	.	2e-X\	.	2g/	.	4dd\	.	1ryy	.	.	.	4d\	Con-	.	.	.	.	.	.	.	.	.	.	.
.	6	.	.	.	.	.	2cc\	.	.	.	.	.	4c\	-glo-	.	.	.	.	.	.	.	.	.	.	.
2D\	7	.	2d\	.	2fn/	.	.	.	.	.	.	.	4c\	-ri-	.	.	.	.	.	.	.	.	.	.	.
.	6	.	.	.	.	.	4b-\	.	.	.	.	.	4B-\	-fi-	.	.	.	.	.	.	.	.	.	.	.
=52	=52	=52	=52	=52	=52	=52	=52	=52	=52	=52	=52	=52	=52	=52	=52	=52	=52	=52	=52	=52	=52	=52	=52	=52	=52
4E-X\	4 2	.	4c\	.	8f/	.	4a/	.	1ryy	.	.	.	4A\	-ca-	.	.	.	.	.	.	.	.	.	.	.
.	.	.	.	.	4f/	.	.	.	.	.	.	.	.	.	.	.	.	.	.	.	.	.	.	.	.
4D\	6	.	4d\	.	.	.	4b-/	.	.	.	.	.	4B-\	.	.	.	.	.	.	.	.	.	.	.	.
.	.	.	.	.	4f/	.	.	.	.	.	.	.	.	.	.	.	.	.	.	.	.	.	.	.	.
4C/	6	.	4A/	.	.	.	4cc/	.	.	.	.	.	4c\	.	.	.	.	.	.	.	.	.	.	.	.
.	.	.	.	.	4f/	.	.	.	.	.	.	.	.	.	.	.	.	.	.	.	.	.	.	.	.
4BB-/	6	.	4B-/	.	.	.	4dd/	.	.	.	.	.	4d\	.	.	.	.	.	.	.	.	.	.	.	.
.	.	.	.	.	8f/	.	.	.	.	.	.	.	.	.	.	.	.	.	.	.	.	.	.	.	.
=53	=53	=53	=53	=53	=53	=53	=53	=53	=53	=53	=53	=53	=53	=53	=53	=53	=53	=53	=53	=53	=53	=53	=53	=53	=53
4AA/	6 5	.	4c/	.	4f/	.	1ee-X	.	1ryy	00r	.	.	1e-X	.	.	00r	.	.	00r	.	.	00r	00r	00r	00r
4F\	7 #	.	4A/	.	4a/	.	.	.	.	.	.	.	.	.	.	.	.	.	.	.	.	.	.	.	.
4G\	5	.	4G/	.	4b-\	.	.	.	.	.	.	.	.	.	.	.	.	.	.	.	.	.	.	.	.
4A\	.	.	4F/	.	4cc\	.	.	.	.	.	.	.	.	.	.	.	.	.	.	.	.	.	.	.	.
!LO:LB:g=original	!	!	!	!	!	!	!	!	!	!	!	!	!LO:LB:g=original	!	!	!	!	!	!	!	!	!	!	!	!
=54	=54	=54	=54	=54	=54	=54	=54	=54	=54	=54	=54	=54	=54	=54	=54	=54	=54	=54	=54	=54	=54	=54	=54	=54	=54
2B-\	6 4	.	4A/	.	2f/	.	4ee\	.	1ryy	.	.	.	4e\	.	.	.	.	.	.	.	.	.	.	.	.
.	x 3	.	4B-/	.	.	.	4dd\	.	.	.	.	.	4d\	.	.	.	.	.	.	.	.	.	.	.	.
4c\	6	.	4A/	.	4e/	.	4cc\	.	.	.	.	.	4c\	.	.	.	.	.	.	.	.	.	.	.	.
4d\	6	.	4B-/	.	4d/	.	4b-\	.	.	.	.	.	4B-\	.	.	.	.	.	.	.	.	.	.	.	.
=55	=55	=55	=55	=55	=55	=55	=55	=55	=55	=55	=55	=55	=55	=55	=55	=55	=55	=55	=55	=55	=55	=55	=55	=55	=55
4e\	4 2	.	4F/	.	4c/	.	4a/	.	1ryy	.	.	.	4A\	-tur	.	.	.	.	.	.	.	.	.	.	.
4r	.	.	4r	.	4r	.	4gg\	.	.	.	.	.	2f\	qvi	.	.	.	.	.	.	.	.	.	.	.
2r	.	.	2r	.	2r	.	4gg\	.	.	.	.	.	.	.	.	.	.	.	.	.	.	.	.	.	.
.	.	.	.	.	.	.	4gg\	.	.	.	.	.	4f\	lo-	.	.	.	.	.	.	.	.	.	.	.
=56	=56	=56	=56	=56	=56	=56	=56	=56	=56	=56	=56	=56	=56	=56	=56	=56	=56	=56	=56	=56	=56	=56	=56	=56	=56
4r	.	.	4r	.	1a	.	1ff#X	.	1ryy	.	.	.	2.f#X\	-cu-	.	.	.	.	.	.	.	.	.	.	.
4e\	#2_	.	4c\	.	.	.	.	.	.	.	.	.	.	.	.	.	.	.	.	.	.	.	.	.	.
4d\	.	.	4d\	.	.	.	.	.	.	.	.	.	.	.	.	.	.	.	.	.	.	.	.	.	.
4c\	X	.	4e\	.	.	.	.	.	.	.	.	.	4f#\	-tus	.	.	.	.	.	.	.	.	.	.	.
=57	=57	=57	=57	=57	=57	=57	=57	=57	=57	=57	=57	=57	=57	=57	=57	=57	=57	=57	=57	=57	=57	=57	=57	=57	=57
4B-\	6	.	4d\	.	4d/	.	4ryy	.	1ryy	00r	.	.	(4g\	est	.	00r	.	.	00r	.	.	00r	00r	00r	00r
!	!	!	!	!	!	!	!LO:LB:g=original	!	!	!	!	!	!	!	!	!	!	!	!	!	!	!	!	!	!
4r	.	.	4r	.	4r	.	4ffn\	.	.	.	.	.	4fn\)	.	.	.	.	.	.	.	.	.	.	.	.
!	!	!	!	!	!LO:PB:g=original	!	!	!	!	!	!	!	!	!	!	!	!	!	!	!	!	!	!	!	!
4r	.	.	4r	.	4r	.	4ee-X\	.	.	.	.	.	4en\	per	.	.	.	.	.	.	.	.	.	.	.
4G\	5 3	.	4G/	.	4b-/	.	4dd\	.	.	.	.	.	4d\	Pro-	.	.	.	.	.	.	.	.	.	.	.
=58	=58	=58	=58	=58	=58	=58	=58	=58	=58	=58	=58	=58	=58	=58	=58	=58	=58	=58	=58	=58	=58	=58	=58	=58	=58
4A\	#	.	4A/	.	1e	.	1cc#X	.	1ryy	.	.	.	1c#X	-phe-	.	.	.	.	.	.	.	.	.	.	.
4G\	3	.	4G/	.	.	.	.	.	.	.	.	.	.	.	.	.	.	.	.	.	.	.	.	.	.
4F\	3	.	4A/	.	.	.	.	.	.	.	.	.	.	.	.	.	.	.	.	.	.	.	.	.	.
4E\	3	.	4G/	.	.	.	.	.	.	.	.	.	.	.	.	.	.	.	.	.	.	.	.	.	.
=59	=59	=59	=59	=59	=59	=59	=59	=59	=59	=59	=59	=59	=59	=59	=59	=59	=59	=59	=59	=59	=59	=59	=59	=59	=59
4D\	#	.	4d\	.	4f#X/	.	4dd\	.	1ryy	.	.	.	4d\	-tas	.	.	.	.	.	.	.	.	.	.	.
4D\	3_	.	4d\	.	4f#/	.	2dd\	.	.	.	.	.	4d\	e(t)	.	.	.	.	.	.	.	.	.	.	.
4E\	.	.	4e\	.	4g/	.	.	.	.	.	.	.	4d\	u-	.	.	.	.	.	.	.	.	.	.	.
4F#X\	X	.	4f#X\	.	4a/	.	4dd\	.	.	.	.	.	4d\	-nam	.	.	.	.	.	.	.	.	.	.	.
!	!	!	!LO:LB:g=original	!	!	!	!	!	!	!	!	!	!	!	!	!	!	!	!	!	!	!	!	!	!
=60	=60	=60	=60	=60	=60	=60	=60	=60	=60	=60	=60	=60	=60	=60	=60	=60	=60	=60	=60	=60	=60	=60	=60	=60	=60
2G\	6	.	2g\	.	2b-/	.	4dd\	.	1ryy	.	.	.	(4d\	S(anc)-	.	.	.	.	.	.	.	.	.	.	.
.	.	.	.	.	.	.	2ee-X\	.	.	.	.	.	4e-X\)	.	.	.	.	.	.	.	.	.	.	.	.
2Fn\	7	.	2fn\	.	2a/	.	.	.	.	.	.	.	4e-\	-tam	.	.	.	.	.	.	.	.	.	.	.
.	6	.	.	.	.	.	4dd\	.	.	.	.	.	4d\	Ca-	.	.	.	.	.	.	.	.	.	.	.
=61	=61	=61	=61	=61	=61	=61	=61	=61	=61	=61	=61	=61	=61	=61	=61	=61	=61	=61	=61	=61	=61	=61	=61	=61	=61
2E-X\	7	.	2e-X\	.	2g/	.	4dd\	.	1ryy	00r	.	.	4d\	-tho-	.	00r	.	.	00r	.	.	00r	00r	00r	00r
.	6	.	.	.	.	.	2cc\	.	.	.	.	.	4c\	-li-	.	.	.	.	.	.	.	.	.	.	.
2D\	7	.	2d\	.	2fn/	.	.	.	.	.	.	.	4c\	-cam	.	.	.	.	.	.	.	.	.	.	.
.	6	.	.	.	.	.	[4b-/	.	.	.	.	.	4B-\	(et)	.	.	.	.	.	.	.	.	.	.	.
!	!	!	!	!	!	!	!	!	!	!	!	!	!LO:LB:g=original	!	!	!	!	!	!	!	!	!	!	!	!
=62	=62	=62	=62	=62	=62	=62	=62	=62	=62	=62	=62	=62	=62	=62	=62	=62	=62	=62	=62	=62	=62	=62	=62	=62	=62
2C/	7	.	2c/	.	2e/	.	4b-/]	.	1ryy	.	.	.	4B-\	a-	.	.	.	.	.	.	.	.	.	.	.
.	6	.	.	.	.	.	2a/	.	.	.	.	.	4A/	-pos-	.	.	.	.	.	.	.	.	.	.	.
2BB-/	7	.	2B-/	.	2d/	.	.	.	.	.	.	.	4A/	-to-	.	.	.	.	.	.	.	.	.	.	.
.	6	.	.	.	.	.	4g/	.	.	.	.	.	4G/	-li-	.	.	.	.	.	.	.	.	.	.	.
!LO:LB:g=original	!	!	!	!	!	!	!	!	!	!	!	!	!	!	!	!	!	!	!	!	!	!	!	!	!
=63	=63	=63	=63	=63	=63	=63	=63	=63	=63	=63	=63	=63	=63	=63	=63	=63	=63	=63	=63	=63	=63	=63	=63	=63	=63
!	!	!	!	!	!	!	!LO:TX:a:t=P:problem:mixed beam	!	!	!	!	!	!	!	!	!	!	!	!	!	!	!	!	!	!
2AA/	6\	.	2A/	.	2d/	.	8f#X/L	.	1ryy	.	.	.	4F#X/	-cam	.	.	.	.	.	.	.	.	.	.	.
.	.	.	.	.	.	.	8dd\	.	.	.	.	.	.	.	.	.	.	.	.	.	.	.	.	.	.
.	.	.	.	.	.	.	8dd\	.	.	.	.	.	4r	.	.	.	.	.	.	.	.	.	.	.	.
.	.	.	.	.	.	.	8dd\J	.	.	.	.	.	.	.	.	.	.	.	.	.	.	.	.	.	.
2F#X\	6 5	.	2d\	.	2a/	.	8dd\L	.	.	.	.	.	4r	.	.	.	.	.	.	.	.	.	.	.	.
.	.	.	.	.	.	.	8cc\	.	.	.	.	.	.	.	.	.	.	.	.	.	.	.	.	.	.
.	.	.	.	.	.	.	8cc\	.	.	.	.	.	4c\	E-	.	.	.	.	.	.	.	.	.	.	.
.	.	.	.	.	.	.	8cc\J	.	.	.	.	.	.	.	.	.	.	.	.	.	.	.	.	.	.
=64	=64	=64	=64	=64	=64	=64	=64	=64	=64	=64	=64	=64	=64	=64	=64	=64	=64	=64	=64	=64	=64	=64	=64	=64	=64
2G\	.	.	2d\	.	2g/	.	8cc\L	.	1ryy	.	.	.	4.B-\	-ccle-	.	.	.	.	.	.	.	.	.	.	.
.	.	.	.	.	.	.	8b-\	.	.	.	.	.	.	.	.	.	.	.	.	.	.	.	.	.	.
.	.	.	.	.	.	.	8b-\	.	.	.	.	.	.	.	.	.	.	.	.	.	.	.	.	.	.
.	.	.	.	.	.	.	8b-\J	.	.	.	.	.	8B-\	-si-	.	.	.	.	.	.	.	.	.	.	.
2En\	6 5	.	2c\	.	2g/	.	8cc\L	.	.	.	.	.	4B-\	-am	.	.	.	.	.	.	.	.	.	.	.
.	.	.	.	.	.	.	8b-\	.	.	.	.	.	.	.	.	.	.	.	.	.	.	.	.	.	.
.	.	.	.	.	.	.	8b-\	.	.	.	.	.	4r	.	.	.	.	.	.	.	.	.	.	.	.
.	.	.	.	.	.	.	8b-\J	.	.	.	.	.	.	.	.	.	.	.	.	.	.	.	.	.	.
!	!	!	!	!	!	!	!LO:PB:g=original	!	!	!	!	!	!	!	!	!	!	!	!	!	!	!	!	!	!
=65	=65	=65	=65	=65	=65	=65	=65	=65	=65	=65	=65	=65	=65	=65	=65	=65	=65	=65	=65	=65	=65	=65	=65	=65	=65
2F\	.	.	2c\	.	2f/	.	(8b-/L	.	1ryy	00r	.	.	4r	.	.	00r	.	.	00r	.	.	00r	00r	00r	00r
.	.	.	.	.	.	.	8a/)	.	.	.	.	.	.	.	.	.	.	.	.	.	.	.	.	.	.
.	.	.	.	.	.	.	8a/	.	.	.	.	.	4A/	et	.	.	.	.	.	.	.	.	.	.	.
.	.	.	.	.	.	.	8a/J	.	.	.	.	.	.	.	.	.	.	.	.	.	.	.	.	.	.
!	!	!	!	!	!	!	!LO:TX:a:t=P:problem:mixed beam	!	!	!	!	!	!	!	!	!	!	!	!	!	!	!	!	!	!
2F\	.	.	2c\	.	2a/	.	(8a/L	.	.	.	.	.	4A/	a-	.	.	.	.	.	.	.	.	.	.	.
.	.	.	.	.	.	.	8ffn\)	.	.	.	.	.	.	.	.	.	.	.	.	.	.	.	.	.	.
.	.	.	.	.	.	.	8ff\	.	.	.	.	.	4f\	-po-	.	.	.	.	.	.	.	.	.	.	.
.	.	.	.	.	.	.	8ff\J	.	.	.	.	.	.	.	.	.	.	.	.	.	.	.	.	.	.
=66	=66	=66	=66	=66	=66	=66	=66	=66	=66	=66	=66	=66	=66	=66	=66	=66	=66	=66	=66	=66	=66	=66	=66	=66	=66
2D/	.	.	2d\	.	2a/	.	(8gg\L	.	1ryy	.	.	.	4.f\	-sto-	.	.	.	.	.	.	.	.	.	.	.
.	.	.	.	.	.	.	8ff\)	.	.	.	.	.	.	.	.	.	.	.	.	.	.	.	.	.	.
.	.	.	.	.	.	.	8ff\	.	.	.	.	.	.	.	.	.	.	.	.	.	.	.	.	.	.
.	.	.	.	.	.	.	8ff\J	.	.	.	.	.	8f\	-li-	.	.	.	.	.	.	.	.	.	.	.
2BBn/	6 5	.	2d\	.	2g/	.	(8gg\L	.	.	.	.	.	4f\	-cam	.	.	.	.	.	.	.	.	.	.	.
.	.	.	.	.	.	.	8ff\)	.	.	.	.	.	.	.	.	.	.	.	.	.	.	.	.	.	.
.	.	.	.	.	.	.	8ff\	.	.	.	.	.	4f\	E-	.	.	.	.	.	.	.	.	.	.	.
.	.	.	.	.	.	.	8ff\J	.	.	.	.	.	.	.	.	.	.	.	.	.	.	.	.	.	.
!	!	!	!	!	!LO:LB:g=original	!	!	!	!	!	!	!	!	!	!	!	!	!	!	!	!	!	!	!	!
=67	=67	=67	=67	=67	=67	=67	=67	=67	=67	=67	=67	=67	=67	=67	=67	=67	=67	=67	=67	=67	=67	=67	=67	=67	=67
4C/	.	.	4c\	.	(8a/L	.	(8ff\L	.	1ryy	.	.	.	8f\L	-ccle-	.	.	.	.	.	.	.	.	.	.	.
.	.	.	.	.	8g/)	.	8ee\	.	.	.	.	.	8e\	.	.	.	.	.	.	.	.	.	.	.	.
4F\	.	.	4f\	.	(8g/	.	8ee\	.	.	.	.	.	8e\	.	.	.	.	.	.	.	.	.	.	.	.
.	.	.	.	.	8f/J)	.	8dd\J)	.	.	.	.	.	8d\J	.	.	.	.	.	.	.	.	.	.	.	.
4G\	4	.	4g\	.	(8f/L	.	(8dd\L	.	.	.	.	.	8d\L	.	.	.	.	.	.	.	.	.	.	.	.
.	.	.	.	.	8e/)	.	8cc\	.	.	.	.	.	8c\J	.	.	.	.	.	.	.	.	.	.	.	.
4GG/	#	.	4G/	.	(8e/	.	8cc\	.	.	.	.	.	8c\L	.	.	.	.	.	.	.	.	.	.	.	.
.	.	.	.	.	8d/J)	.	8bn\J)	.	.	.	.	.	8Bn\J	-si-	.	.	.	.	.	.	.	.	.	.	.
!	!	!	!	!	!	!	!	!	!	!	!	!	!LO:LB:g=original	!	!	!	!	!	!	!	!	!	!	!	!
=68	=68	=68	=68	=68	=68	=68	=68	=68	=68	=68	=68	=68	=68	=68	=68	=68	=68	=68	=68	=68	=68	=68	=68	=68	=68
4C/	.	.	4c/	.	4e/	.	4cc\	.	1ryy	.	.	.	4c\	-am	.	.	.	.	.	.	.	.	.	.	.
4C/	.	.	4c/	.	4e/	.	4cc\	.	.	.	.	.	4r	.	.	.	.	.	.	.	.	.	.	.	.
4C/	.	.	4c/	.	4e/	.	4cc\	.	.	.	.	.	2r	.	.	.	.	.	.	.	.	.	.	.	.
16c\LL	.	.	16cc\LL	.	4r	.	4r	.	.	.	.	.	.	.	.	.	.	.	.	.	.	.	.	.	.
16B-\	.	.	16b-\	.	.	.	.	.	.	.	.	.	.	.	.	.	.	.	.	.	.	.	.	.	.
16A\	.	.	16a\	.	.	.	.	.	.	.	.	.	.	.	.	.	.	.	.	.	.	.	.	.	.
16G\JJ	.	.	16g\JJ	.	.	.	.	.	.	.	.	.	.	.	.	.	.	.	.	.	.	.	.	.	.
!	!	!	!	!	!	!	!	!	!	!	!	!	!	!	!	!	!	!	!LO:LB:g=original	!	!	!	!	!	!
=69	=69	=69	=69	=69	=69	=69	=69	=69	=69	=69	=69	=69	=69	=69	=69	=69	=69	=69	=69	=69	=69	=69	=69	=69	=69
*	*	*	*	*	*^	*	*	*	*	*	*	*	*	*	*	*	*	*	*	*	*	*	*	*	*
*	*	*	*	*	*	*tremolo	*	*	*	*	*	*	*	*	*	*	*	*	*	*	*	*	*	*	*	*
!	!	!LO:DY:b:t=for	!	!	!	!	!LO:DY:a:t=for&colon;	!	!LO:DY:a:t=for&colon;	!	!	!	!	!	!	!LO:DY:a	!	!	!	!	!	!	!	!	!	!
8F\L	.	f	8f\L	.	16a/LL	16f\LL	f	16ff\LL	f	1ryy	(4F\	Con-	.	2c\	Con-	f	2a\	Con-	.	2ff\	Con-	.	2f\	2.a\	2a/	2ff\
.	.	.	.	.	16a/	16f\	.	16gg\	.	.	.	.	.	.	.	.	.	.	.	.	.	.	.	.	.	.
8F\	.	.	8f\	.	16a/	16f\	.	16aa\	.	.	.	.	.	.	.	.	.	.	.	.	.	.	.	.	.	.
.	.	.	.	.	16a/JJ	16f\	.	16gg\JJ	.	.	.	.	.	.	.	.	.	.	.	.	.	.	.	.	.	.
8A\	6	.	8a\	.	16a/LL	16f\	.	8ff\L	.	.	4A\)	.	.	.	.	.	.	.	.	.	.	.	.	.	.	.
.	.	.	.	.	16a/	16f\	.	.	.	.	.	.	.	.	.	.	.	.	.	.	.	.	.	.	.	.
8A\J	.	.	8a\J	.	16a/	16f\	.	8ff\J	.	.	.	.	.	.	.	.	.	.	.	.	.	.	.	.	.	.
.	.	.	.	.	16a/JJ	16f\JJ	.	.	.	.	.	.	.	.	.	.	.	.	.	.	.	.	.	.	.	.
*	*	*	*	*	*	*Xtremolo	*	*	*	*	*	*	*	*	*	*	*	*	*	*	*	*	*	*	*	*
!LO:TX:a:t=P:problem:mixed beam	!	!	!	!	!	!	!	!	!	!	!	!	!	!	!	!	!	!	!	!	!	!	!	!	!	!
8c\L	6	.	8c/L	.	8a/L	2ryy	.	8ff\L	.	.	4c\	-fi-	.	4.c\	-fi-	.	8a\L	-fi-	.	8ff\L	-fi-	.	4f\	.	4a/	8ff\L
8c\	.	.	8c/	.	16g/L	.	.	16ee\L	.	.	.	.	.	.	.	.	16g\L	.	.	16ee\L	.	.	.	.	.	16ee\L
.	.	.	.	.	16a/JJ	.	.	16ff\JJ	.	.	.	.	.	.	.	.	16a\JJ	.	.	16ff\JJ	.	.	.	.	.	16ff\JJ
!	!	!	!	!	!	!	!	!	!	!	!	!	!	!	!	!	!	!	!	!	!	!	!LO:TX:a:t=P:problem:mixed beam	!	!	!
.	.	.	.	.	8qqcc/	.	.	.	.	.	.	.	.	.	.	.	.	.	.	.	.	.	.	.	.	8qqaa/
8C/	5	.	8c/	.	8b-/L	.	.	16aa\LL	.	.	4C/	-te-	.	.	.	.	8b-\L	-te-	.	8gg\L	-te-	.	8g\L	8b-\L	8b-/L	8gg\L
.	.	.	.	.	.	.	.	16gg\	.	.	.	.	.	.	.	.	.	.	.	.	.	.	.	.	.	.
8C/J	.	.	8c/J	.	16a/L	.	.	16ff\	.	.	.	.	.	8c\	-te-	.	8g\J	.	.	8ee\J	.	.	8c/J	8g\J	8g/J	16ff\L
.	.	.	.	.	16g/JJ	.	.	16ee\JJ	.	.	.	.	.	.	.	.	.	.	.	.	.	.	.	.	.	16ee\JJ
!	!	!	!LO:LB:g=original	!	!	!	!	!	!	!	!	!	!	!	!	!	!	!	!	!	!	!	!	!	!	!
=70	=70	=70	=70	=70	=70	=70	=70	=70	=70	=70	=70	=70	=70	=70	=70	=70	=70	=70	=70	=70	=70	=70	=70	=70	=70	=70
4F\	8 3_	.	4c/	.	4a/	4f\	.	16ff\LL	.	1ryy	4F\	-or	.	4c\	-or	.	4a\	-or	.	4ff\	-or	.	4f\	4a\	4a/	4ff\
.	.	.	.	.	.	.	.	16gg\	.	.	.	.	.	.	.	.	.	.	.	.	.	.	.	.	.	.
.	.	.	.	.	.	.	.	16aa\	.	.	.	.	.	.	.	.	.	.	.	.	.	.	.	.	.	.
.	.	.	.	.	.	.	.	16gg\JJ	.	.	.	.	.	.	.	.	.	.	.	.	.	.	.	.	.	.
4F\	.	.	4c/	.	4a/	4f\	.	16ff\LL	.	.	4r	.	.	4r	.	.	4r	.	.	4r	.	.	4f\	4a\	4a/	4ff\
.	.	.	.	.	.	.	.	16gg\	.	.	.	.	.	.	.	.	.	.	.	.	.	.	.	.	.	.
.	.	.	.	.	.	.	.	16aa\	.	.	.	.	.	.	.	.	.	.	.	.	.	.	.	.	.	.
.	.	.	.	.	.	.	.	16gg\JJ	.	.	.	.	.	.	.	.	.	.	.	.	.	.	.	.	.	.
!	!	!	!	!	!	!	!	!	!LO:DY:a:t=p&colon;	!	!	!	!	!	!	!	!	!	!	!	!	!	!	!	!	!
4F\	.	.	4c/	.	4a/	4f\	.	8ff\L	p	.	2r	.	.	2r	.	.	2r	.	.	2r	.	.	4f\	4a\	4a/	4ff\
.	X	.	.	.	.	.	.	8ee\J	.	.	.	.	.	.	.	.	.	.	.	.	.	.	.	.	.	.
!	!	!	!	!	!	!	!	!LO:LB:g=original	!	!	!	!	!	!	!	!	!	!	!	!	!	!	!	!	!	!
4r	.	.	4r	.	4r	4ryy	.	8dd\L	.	.	.	.	.	.	.	.	.	.	.	.	.	.	4r	4r	4r	4r
.	.	.	.	.	.	.	.	8cc\J	.	.	.	.	.	.	.	.	.	.	.	.	.	.	.	.	.	.
*	*	*	*	*	*v	*v	*	*	*	*	*	*	*	*	*	*	*	*	*	*	*	*	*	*	*	*
!LO:LB:g=original	!	!	!	!	!	!	!	!	!	!	!	!	!	!	!	!	!	!	!	!	!	!	!LO:LB:g=original	!	!
=71	=71	=71	=71	=71	=71	=71	=71	=71	=71	=71	=71	=71	=71	=71	=71	=71	=71	=71	=71	=71	=71	=71	=71	=71	=71
!	!	!	!	!LO:DY:a:t=p.	!	!	!	!	!	!	!	!	!	!	!	!	!	!	!	!	!	!	!	!	!
00r	.	.	4r	p	4r	.	1cc	.	1ryy	00r	.	.	00r	.	.	00r	.	.	00r	.	.	00r	00r	00r	00r
!	!	!	!	!	!	!LO:DY:a:t=p.	!	!	!	!	!	!	!	!	!	!	!	!	!	!	!	!	!	!	!
.	.	.	4e\	.	4g/	p	.	.	.	.	.	.	.	.	.	.	.	.	.	.	.	.	.	.	.
.	.	.	4d\	.	4f/	.	.	.	.	.	.	.	.	.	.	.	.	.	.	.	.	.	.	.	.
.	.	.	4c\	.	4e/	.	.	.	.	.	.	.	.	.	.	.	.	.	.	.	.	.	.	.	.
=72	=72	=72	=72	=72	=72	=72	=72	=72	=72	=72	=72	=72	=72	=72	=72	=72	=72	=72	=72	=72	=72	=72	=72	=72	=72
.	.	.	2d\	.	1f	.	(8cc\L	.	1ryy	.	.	.	.	.	.	.	.	.	.	.	.	.	.	.	.
.	.	.	.	.	.	.	8bn\)	.	.	.	.	.	.	.	.	.	.	.	.	.	.	.	.	.	.
.	.	.	.	.	.	.	8dd\	.	.	.	.	.	.	.	.	.	.	.	.	.	.	.	.	.	.
.	.	.	.	.	.	.	8ff\J	.	.	.	.	.	.	.	.	.	.	.	.	.	.	.	.	.	.
.	.	.	2G/	.	.	.	8ee\L	.	.	.	.	.	.	.	.	.	.	.	.	.	.	.	.	.	.
.	.	.	.	.	.	.	8dd\	.	.	.	.	.	.	.	.	.	.	.	.	.	.	.	.	.	.
.	.	.	.	.	.	.	8cc\	.	.	.	.	.	.	.	.	.	.	.	.	.	.	.	.	.	.
.	.	.	.	.	.	.	8b\J	.	.	.	.	.	.	.	.	.	.	.	.	.	.	.	.	.	.
=73	=73	=73	=73	=73	=73	=73	=73	=73	=73	=73	=73	=73	=73	=73	=73	=73	=73	=73	=73	=73	=73	=73	=73	=73	=73
.	.	.	4r	.	4r	.	1cc	.	1ryy	.	.	.	.	.	.	.	.	.	.	.	.	.	.	.	.
.	.	.	4e\	.	4g/	.	.	.	.	.	.	.	.	.	.	.	.	.	.	.	.	.	.	.	.
.	.	.	4d\	.	4f/	.	.	.	.	.	.	.	.	.	.	.	.	.	.	.	.	.	.	.	.
.	.	.	4c\	.	4e/	.	.	.	.	.	.	.	.	.	.	.	.	.	.	.	.	.	.	.	.
=74	=74	=74	=74	=74	=74	=74	=74	=74	=74	=74	=74	=74	=74	=74	=74	=74	=74	=74	=74	=74	=74	=74	=74	=74	=74
.	.	.	2d\	.	2f/	.	(8cc\L	.	1ryy	.	.	.	.	.	.	.	.	.	.	.	.	.	.	.	.
.	.	.	.	.	.	.	8b-X\)	.	.	.	.	.	.	.	.	.	.	.	.	.	.	.	.	.	.
.	.	.	.	.	.	.	8b-\	.	.	.	.	.	.	.	.	.	.	.	.	.	.	.	.	.	.
.	.	.	.	.	.	.	8b-\J	.	.	.	.	.	.	.	.	.	.	.	.	.	.	.	.	.	.
.	.	.	2c\	.	2e/	.	(8b-/L	.	.	.	.	.	.	.	.	.	.	.	.	.	.	.	.	.	.
.	.	.	.	.	.	.	8a/)	.	.	.	.	.	.	.	.	.	.	.	.	.	.	.	.	.	.
.	.	.	.	.	.	.	8a/|	.	.	.	.	.	.	.	.	.	.	.	.	.	.	.	.	.	.
.	.	.	.	.	.	.	8a/J|	.	.	.	.	.	.	.	.	.	.	.	.	.	.	.	.	.	.
!	!	!	!	!	!LO:LB:g=original	!	!	!	!	!	!	!	!	!	!	!	!	!	!	!	!	!	!	!	!
=75	=75	=75	=75	=75	=75	=75	=75	=75	=75	=75	=75	=75	=75	=75	=75	=75	=75	=75	=75	=75	=75	=75	=75	=75	=75
0r	.	.	2B-X/	.	2d/	.	(8a/L	.	1ryy	0r	.	.	0r	.	.	0r	.	.	0r	.	.	0r	0r	0r	0r
.	.	.	.	.	.	.	8g/)	.	.	.	.	.	.	.	.	.	.	.	.	.	.	.	.	.	.
.	.	.	.	.	.	.	8g/|	.	.	.	.	.	.	.	.	.	.	.	.	.	.	.	.	.	.
.	.	.	.	.	.	.	8g/J|	.	.	.	.	.	.	.	.	.	.	.	.	.	.	.	.	.	.
.	.	.	2A/	.	2c/	.	(8g/L	.	.	.	.	.	.	.	.	.	.	.	.	.	.	.	.	.	.
.	.	.	.	.	.	.	8f/)	.	.	.	.	.	.	.	.	.	.	.	.	.	.	.	.	.	.
.	.	.	.	.	.	.	8f/|	.	.	.	.	.	.	.	.	.	.	.	.	.	.	.	.	.	.
.	.	.	.	.	.	.	8f/J|	.	.	.	.	.	.	.	.	.	.	.	.	.	.	.	.	.	.
=76	=76	=76	=76	=76	=76	=76	=76	=76	=76	=76	=76	=76	=76	=76	=76	=76	=76	=76	=76	=76	=76	=76	=76	=76	=76
.	.	.	4C/	.	8c/L	.	8e/L	.	1ryy	.	.	.	.	.	.	.	.	.	.	.	.	.	.	.	.
.	.	.	.	.	8d/	.	8f/	.	.	.	.	.	.	.	.	.	.	.	.	.	.	.	.	.	.
.	.	.	4r	.	8e/	.	8g/	.	.	.	.	.	.	.	.	.	.	.	.	.	.	.	.	.	.
.	.	.	.	.	8f/J	.	8a/J	.	.	.	.	.	.	.	.	.	.	.	.	.	.	.	.	.	.
.	.	.	2r	.	8g/L	.	8b-\L	.	.	.	.	.	.	.	.	.	.	.	.	.	.	.	.	.	.
.	.	.	.	.	8a/	.	8cc\	.	.	.	.	.	.	.	.	.	.	.	.	.	.	.	.	.	.
.	.	.	.	.	8b-/	.	8dd\	.	.	.	.	.	.	.	.	.	.	.	.	.	.	.	.	.	.
.	.	.	.	.	8g/J	.	8ee\J	.	.	.	.	.	.	.	.	.	.	.	.	.	.	.	.	.	.
=77	=77	=77	=77	=77	=77	=77	=77	=77	=77	=77	=77	=77	=77	=77	=77	=77	=77	=77	=77	=77	=77	=77	=77	=77	=77
*	*	*	*	*	*^	*	*	*	*	*	*	*	*	*	*	*	*	*	*	*	*	*	*	*	*
*	*	*	*	*	*tremolo	*tremolo	*	*	*	*	*	*	*	*	*	*	*	*	*	*	*	*	*	*	*	*
!LO:TX:a:t=Tutti	!	!	!	!	!	!	!LO:DY:b:rj:t=for	!	!LO:DY:a:t=for&colon;	!	!	!	!	!	!	!	!	!	!	!	!	!	!	!	!	!
8F\L	.	.	8f\L	.	16a/LL	16f\LL	f	16ff\LL	f	1ryy	4F\	u-	.	4c\	u-	.	4a\	u-	.	4ff\	u-	.	2f\	2.a\	2a/	2ff\
.	.	.	.	.	16a/	16f\	.	16gg\	.	.	.	.	.	.	.	.	.	.	.	.	.	.	.	.	.	.
8F\	.	.	8f\	.	16a/	16f\	.	16aa\	.	.	.	.	.	.	.	.	.	.	.	.	.	.	.	.	.	.
.	.	.	.	.	16a/	16f\	.	16gg\JJ	.	.	.	.	.	.	.	.	.	.	.	.	.	.	.	.	.	.
8A\	.	.	8a\	.	16a/	16f\	.	8ff\L	.	.	8A\	-num	.	8c\	-num	.	8a\	-num	.	8ff\	-num	.	.	.	.	.
.	.	.	.	.	16a/	16f\	.	.	.	.	.	.	.	.	.	.	.	.	.	.	.	.	.	.	.	.
8A\J	.	.	8a\J	.	16a/	16f\	.	8ff\J	.	.	8A\	Bap-	.	8c\	Bap-	.	8a\	bap-	.	8ff\	Bap-	.	.	.	.	.
.	.	.	.	.	16a/JJ	16f\JJ	.	.	.	.	.	.	.	.	.	.	.	.	.	.	.	.	.	.	.	.
*	*	*	*	*	*Xtremolo	*Xtremolo	*	*	*	*	*	*	*	*	*	*	*	*	*	*	*	*	*	*	*	*
!LO:TX:a:t=P:problem:mixed beam	!	!	!	!	!	!	!	!	!	!	!	!	!	!	!	!	!LO:LB:g=original	!	!	!	!	!	!	!	!	!
8c\L	.	.	8c\L	.	8a/L	2ryy	.	8ff\L	.	.	(4c\	-tis-	.	2c\	-tis-	.	4a\	-tiſ-	.	4ff\	-tiſ-	.	4f\	.	4a/	8ff\L
8c\	.	.	8c\	.	16g/L	.	.	16ee\L	.	.	.	.	.	.	.	.	.	.	.	.	.	.	.	.	.	16ee\L
.	.	.	.	.	16a/JJ	.	.	16ff\JJ	.	.	.	.	.	.	.	.	.	.	.	.	.	.	.	.	.	16ff\JJ
!	!	!	!	!	!	!	!	!	!	!	!	!	!	!	!	!	!	!	!	!	!	!	!LO:TX:a:t=P:problem:mixed beam	!	!	!
.	.	.	.	.	8qqcc/	.	.	.	.	.	.	.	.	.	.	.	.	.	.	.	.	.	.	.	.	8qqaa/
!	!	!	!	!	!	!	!	!LO:LB:g=original	!	!	!	!	!	!	!	!	!	!	!	!	!	!	!	!	!	!
8C/	.	.	8c\	.	8b-/L	.	.	16aa\LL	.	.	4C/)	.	.	.	.	.	8b-\L	.	.	8gg\L	.	.	8g\L	8b-\L	8b-/L	8gg\L
.	.	.	.	.	.	.	.	16gg\	.	.	.	.	.	.	.	.	.	.	.	.	.	.	.	.	.	.
8C/J	.	.	8c\J	.	16a/L	.	.	16ff\	.	.	.	.	.	.	.	.	8g\J	.	.	8ee\J	.	.	8c/J	8g\J	8g/J	16ff\L
.	.	.	.	.	16g/JJ	.	.	16ee\JJ	.	.	.	.	.	.	.	.	.	.	.	.	.	.	.	.	.	16ee\JJ
!	!	!	!	!	!	!	!	!	!	!	!	!	!	!	!	!	!	!	!	!	!	!	!	!	!	!LO:LB:g=original
=78	=78	=78	=78	=78	=78	=78	=78	=78	=78	=78	=78	=78	=78	=78	=78	=78	=78	=78	=78	=78	=78	=78	=78	=78	=78	=78
4F\	8 3_	.	4c\	.	4a/	4f\	.	16ff\LL	.	1ryy	2F\	-ma	.	2c\	-ma	.	4a\	-ma	.	4ff\	-ma	.	4f\	4a\	4a/	4ff\
.	.	.	.	.	.	.	.	16gg\	.	.	.	.	.	.	.	.	.	.	.	.	.	.	.	.	.	.
.	.	.	.	.	.	.	.	16aa\	.	.	.	.	.	.	.	.	.	.	.	.	.	.	.	.	.	.
.	.	.	.	.	.	.	.	16gg\JJ	.	.	.	.	.	.	.	.	.	.	.	.	.	.	.	.	.	.
4F\	.	.	4c\	.	4a/	4f\	.	16ff\LL	.	.	.	.	.	.	.	.	4r	.	.	4r	.	.	8f\L	8a\L	4a/	4ff\
.	.	.	.	.	.	.	.	16gg\	.	.	.	.	.	.	.	.	.	.	.	.	.	.	.	.	.	.
.	.	.	.	.	.	.	.	16aa\	.	.	.	.	.	.	.	.	.	.	.	.	.	.	8f\J	8a\J	.	.
.	.	.	.	.	.	.	.	16gg\JJ	.	.	.	.	.	.	.	.	.	.	.	.	.	.	.	.	.	.
!	!	!	!	!	!	!	!	!LO:TX:a:t=P:problem:mixed beam	!	!	!	!	!	!	!	!	!	!	!	!	!	!	!	!	!	!
4F\	.	.	4c\	.	4a/	4f\	.	8ff\L	.	.	4F\	in	.	4c\	in	.	4a\	in	.	4ff\	in	.	4f\	4a\	4a/	4ff\
.	X X	.	.	.	.	.	.	8f/	.	.	.	.	.	.	.	.	.	.	.	.	.	.	.	.	.	.
4r	.	.	4r	.	4r	4ryy	.	8ff\	.	.	4F\	re-	.	4c\	re-	.	4a\	re-	.	4ff\	re-	.	4f\	4a\	4r	4r
.	.	.	.	.	.	.	.	8ff\J	.	.	.	.	.	.	.	.	.	.	.	.	.	.	.	.	.	.
!	!	!	!LO:LB:g=original	!	!	!	!	!	!	!	!LO:LB:g=original	!	!	!	!	!	!	!	!	!LO:LB:g=original	!	!	!LO:LB:g=original	!	!	!
=79	=79	=79	=79	=79	=79	=79	=79	=79	=79	=79	=79	=79	=79	=79	=79	=79	=79	=79	=79	=79	=79	=79	=79	=79	=79	=79
4D/	.	.	4d\	.	4a/	4f\	.	16ff\LL	.	1ryy	4D/	-miſ-	.	4d\	-miſ-	.	4a\	-miſ-	.	4ff\	-miſ-	.	1f	1a	1a	1ff
.	.	.	.	.	.	.	.	16gg\	.	.	.	.	.	.	.	.	.	.	.	.	.	.	.	.	.	.
.	.	.	.	.	.	.	.	16aa\	.	.	.	.	.	.	.	.	.	.	.	.	.	.	.	.	.	.
.	.	.	.	.	.	.	.	16gg\JJ	.	.	.	.	.	.	.	.	.	.	.	.	.	.	.	.	.	.
4D/	5 3_	.	4d\	.	4a/	4f\	.	16ff\LL	.	.	4D/	-si-	.	4d\	-si-	.	4a\	-si-	.	4ff\	-si-	.	.	.	.	.
.	.	.	.	.	.	.	.	16gg\	.	.	.	.	.	.	.	.	.	.	.	.	.	.	.	.	.	.
.	.	.	.	.	.	.	.	16aa\	.	.	.	.	.	.	.	.	.	.	.	.	.	.	.	.	.	.
.	.	.	.	.	.	.	.	16gg\JJ	.	.	.	.	.	.	.	.	.	.	.	.	.	.	.	.	.	.
!	!	!	!	!	!	!	!	!LO:TX:a:t=P:problem:mixed beam	!	!	!	!	!	!	!	!	!	!	!	!	!	!	!	!	!	!
4D/	.	.	4d\	.	4a/	4f\	.	8ff\L	.	.	4D/	-o-	.	4d\	-o-	.	4a\	-o-	.	4ff\	-o-	.	.	.	.	.
.	X X	.	.	.	.	.	.	8f/	.	.	.	.	.	.	.	.	.	.	.	.	.	.	.	.	.	.
4r	.	.	4r	.	4r	4ryy	.	8ff\	.	.	4D/	-nem	.	4d\	-nem	.	4a\	-nem	.	4ff\	-nem	.	.	.	.	.
.	.	.	.	.	.	.	.	8ff\J	.	.	.	.	.	.	.	.	.	.	.	.	.	.	.	.	.	.
*	*	*	*	*	*v	*v	*	*	*	*	*	*	*	*	*	*	*	*	*	*	*	*	*	*	*	*
!	!	!	!	!	!	!	!	!	!	!	!	!	!LO:LB:g=original	!	!	!	!	!	!	!	!	!	!	!	!
=80	=80	=80	=80	=80	=80	=80	=80	=80	=80	=80	=80	=80	=80	=80	=80	=80	=80	=80	=80	=80	=80	=80	=80	=80	=80
4BBn/	6 5_	.	4d\	.	4g 4G/	.	16gg\LL	.	1ryy	4BBn/	pec-	.	4d\	pec-	.	4g\	pec-	.	4ff\	pec-	.	4g\	4g\	1dd	1ff
.	.	.	.	.	.	.	16ff\	.	.	.	.	.	.	.	.	.	.	.	.	.	.	.	.	.	.
.	.	.	.	.	.	.	16ee\	.	.	.	.	.	.	.	.	.	.	.	.	.	.	.	.	.	.
.	.	.	.	.	.	.	16ff\JJ	.	.	.	.	.	.	.	.	.	.	.	.	.	.	.	.	.	.
4BB/	.	.	4d\	.	4g 4G/	.	16gg\LL	.	.	4BB/	-ca-	.	4d\	-ca-	.	4g\	-ca-	.	4ff\	-ca-	.	8g\L	8g\L	.	.
.	.	.	.	.	.	.	16ff\	.	.	.	.	.	.	.	.	.	.	.	.	.	.	.	.	.	.
.	.	.	.	.	.	.	16ee\	.	.	.	.	.	.	.	.	.	.	.	.	.	.	8g\J	8g\J	.	.
.	.	.	.	.	.	.	16ff\JJ	.	.	.	.	.	.	.	.	.	.	.	.	.	.	.	.	.	.
4BB/	.	.	4d\	.	4g 4G/	.	16ff\LL	.	.	2BB/	-to-	.	2d\	-to-	.	2g\	-to-	.	2ff\	-to-	.	4g\	4g\	.	.
.	X X	.	.	.	.	.	16ee\	.	.	.	.	.	.	.	.	.	.	.	.	.	.	.	.	.	.
.	.	.	.	.	.	.	16dd\	.	.	.	.	.	.	.	.	.	.	.	.	.	.	.	.	.	.
.	.	.	.	.	.	.	16cc\JJ	.	.	.	.	.	.	.	.	.	.	.	.	.	.	.	.	.	.
4r	.	.	4r	.	4r	.	16b-/LL	.	.	.	.	.	.	.	.	.	.	.	.	.	.	4g\	4g\	.	.
.	.	.	.	.	.	.	16a/	.	.	.	.	.	.	.	.	.	.	.	.	.	.	.	.	.	.
.	.	.	.	.	.	.	16g/	.	.	.	.	.	.	.	.	.	.	.	.	.	.	.	.	.	.
.	.	.	.	.	.	.	16f/JJ	.	.	.	.	.	.	.	.	.	.	.	.	.	.	.	.	.	.
=81	=81	=81	=81	=81	=81	=81	=81	=81	=81	=81	=81	=81	=81	=81	=81	=81	=81	=81	=81	=81	=81	=81	=81	=81	=81
*tremolo	*	*	*tremolo	*	*	*	*	*	*	*	*	*	*	*	*	*	*	*	*	*	*	*	*	*	*
8C/L	.	.	8e\L	.	16g/LL	.	8e/L	.	1ryy	4C/	-rum	.	2c\	-rum	.	4g\	-rum	.	4ee\	-rum	.	4c/	4g\	4cc\	4ee\
.	.	.	.	.	16g/	.	.	.	.	.	.	.	.	.	.	.	.	.	.	.	.	.	.	.	.
8C/	.	.	8e\	.	16g/	.	8g/J	.	.	.	.	.	.	.	.	.	.	.	.	.	.	.	.	.	.
.	.	.	.	.	16g/JJ	.	.	.	.	.	.	.	.	.	.	.	.	.	.	.	.	.	.	.	.
*	*	*	*	*	*tremolo	*	*	*	*	*	*	*	*	*	*	*	*	*	*	*	*	*	*	*	*
8C/	.	.	8e\	.	16g/LL	.	4.cc\	.	.	2E\	et	.	.	.	.	2g\	Et	.	2cc\	et	.	4c/	4g\	4cc\	4ccc\
.	.	.	.	.	16g/	.	.	.	.	.	.	.	.	.	.	.	.	.	.	.	.	.	.	.	.
8C/J	.	.	8e\J	.	16g/	.	.	.	.	.	.	.	.	.	.	.	.	.	.	.	.	.	.	.	.
.	.	.	.	.	16g/JJ	.	.	.	.	.	.	.	.	.	.	.	.	.	.	.	.	.	.	.	.
8E\L	6	.	8g\L	.	16cc\LL	.	.	.	.	.	.	.	4c\	et	.	.	.	.	.	.	.	2r	2r	2r	2r
.	.	.	.	.	16cc\	.	.	.	.	.	.	.	.	.	.	.	.	.	.	.	.	.	.	.	.
8E\	.	.	8g\	.	16cc\	.	16cc\LL	.	.	.	.	.	.	.	.	.	.	.	.	.	.	.	.	.	.
.	.	.	.	.	16cc\	.	16dd\JJ	.	.	.	.	.	.	.	.	.	.	.	.	.	.	.	.	.	.
8E\	.	.	8g\	.	16cc\	.	8cc\L	.	.	4E\	ex-	.	4c\	ex-	.	4g\	ex-	.	4cc\	ex-	.	.	.	.	.
.	.	.	.	.	16cc\	.	.	.	.	.	.	.	.	.	.	.	.	.	.	.	.	.	.	.	.
8E\J	.	.	8g\J	.	16cc\	.	8cc\J	.	.	.	.	.	.	.	.	.	.	.	.	.	.	.	.	.	.
.	.	.	.	.	16cc\JJ	.	.	.	.	.	.	.	.	.	.	.	.	.	.	.	.	.	.	.	.
!	!	!	!	!	!LO:LB:g=original	!	!	!	!	!	!	!	!	!	!	!	!	!	!	!	!	!	!	!LO:LB:g=original	!
=82	=82	=82	=82	=82	=82	=82	=82	=82	=82	=82	=82	=82	=82	=82	=82	=82	=82	=82	=82	=82	=82	=82	=82	=82	=82
8F\L	6 5	.	8a\L	.	16cc\LL	.	(8cc\L	.	1ryy	4F\	-pec-	.	4c\	-pec-	.	4a\	-pec-	.	8cc\L	-pec-	.	1c	1c	2dd\	1ccc
.	.	.	.	.	16cc\	.	.	.	.	.	.	.	.	.	.	.	.	.	.	.	.	.	.	.	.
8F\	.	.	8a\	.	16cc\	.	8dd\J)	.	.	.	.	.	.	.	.	.	.	.	8dd\J	.	.	.	.	.	.
.	.	.	.	.	16cc\	.	.	.	.	.	.	.	.	.	.	.	.	.	.	.	.	.	.	.	.
!	!	!	!	!	!	!	!LO:LB:g=original	!	!	!	!	!	!	!	!	!	!	!	!	!	!	!	!	!	!
8F\	.	.	8a\	.	16cc\	.	4.dd\	.	.	4F\	-to	.	4c\	-to	.	4a\	-to	.	4dd\	-to	.	.	.	.	.
.	.	.	.	.	16cc\	.	.	.	.	.	.	.	.	.	.	.	.	.	.	.	.	.	.	.	.
8F\J	.	.	8a\J	.	16cc\	.	.	.	.	.	.	.	.	.	.	.	.	.	.	.	.	.	.	.	.
.	.	.	.	.	16cc\JJ	.	.	.	.	.	.	.	.	.	.	.	.	.	.	.	.	.	.	.	.
8G\L	6 4	.	8g\L	.	16cc\LL	.	.	.	.	4G\	re-	.	4c\	re-	.	4cc\	re-	.	4ee\	re-	.	.	.	2ee\	.
.	.	.	.	.	16cc\	.	.	.	.	.	.	.	.	.	.	.	.	.	.	.	.	.	.	.	.
8G\	.	.	8g\	.	16cc\	.	16ee\LL	.	.	.	.	.	.	.	.	.	.	.	.	.	.	.	.	.	.
.	.	.	.	.	16cc\	.	16ff\JJ	.	.	.	.	.	.	.	.	.	.	.	.	.	.	.	.	.	.
8G\	.	.	8g\	.	16cc\	.	8ee\L	.	.	4G\	-ſu-	.	4c\	-sur-	.	4cc\	-su-	.	4ee\	-sur-	.	.	.	.	.
.	.	.	.	.	16cc\	.	.	.	.	.	.	.	.	.	.	.	.	.	.	.	.	.	.	.	.
8G\J	.	.	8g\J	.	16cc\	.	8ee\J	.	.	.	.	.	.	.	.	.	.	.	.	.	.	.	.	.	.
.	.	.	.	.	16cc\JJ	.	.	.	.	.	.	.	.	.	.	.	.	.	.	.	.	.	.	.	.
=83	=83	=83	=83	=83	=83	=83	=83	=83	=83	=83	=83	=83	=83	=83	=83	=83	=83	=83	=83	=83	=83	=83	=83	=83	=83
8A\L	6	.	8f\L	.	16cc\LL	.	8ee\L	.	1ryy	4A\	-rec-	.	4c\	-rec-	.	4cc\	-rec-	.	8ee\L	-rec-	.	1c	2c/	2ff\	1ccc
.	.	.	.	.	16cc\	.	.	.	.	.	.	.	.	.	.	.	.	.	.	.	.	.	.	.	.
8A\	.	.	8f\	.	16cc\	.	8ff\J	.	.	.	.	.	.	.	.	.	.	.	8ff\J	.	.	.	.	.	.
.	.	.	.	.	16cc\	.	.	.	.	.	.	.	.	.	.	.	.	.	.	.	.	.	.	.	.
8A\	.	.	8f\	.	16cc\	.	4.ff\	.	.	4A\	-ti-	.	4c\	-ti-	.	4a\	-ti-	.	4ff\	-ti-	.	.	.	.	.
.	.	.	.	.	16cc\	.	.	.	.	.	.	.	.	.	.	.	.	.	.	.	.	.	.	.	.
8A\J	.	.	8f\J	.	16cc\	.	.	.	.	.	.	.	.	.	.	.	.	.	.	.	.	.	.	.	.
.	.	.	.	.	16cc\JJ	.	.	.	.	.	.	.	.	.	.	.	.	.	.	.	.	.	.	.	.
!	!	!	!	!	!	!	!	!	!	!	!	!	!	!	!	!	!	!	!LO:PB:g=original	!	!	!	!	!	!
8E\L	6	.	8e\L	.	16cc\LL	.	.	.	.	4E\	-o-	.	4c\	-o-	.	4g\	-o-	.	4cc\	-o-	.	.	2g\	2gg\	.
.	.	.	.	.	16cc\	.	.	.	.	.	.	.	.	.	.	.	.	.	.	.	.	.	.	.	.
8E\	.	.	8e\	.	16cc\	.	16gg\LL	.	.	.	.	.	.	.	.	.	.	.	.	.	.	.	.	.	.
.	.	.	.	.	16cc\	.	16aa\JJ	.	.	.	.	.	.	.	.	.	.	.	.	.	.	.	.	.	.
8E\	.	.	8e\	.	16cc\	.	8gg\L	.	.	4E\	-nem	.	4c\	-nem	.	4g\	-nem	.	4cc\	-nem	.	.	.	.	.
.	.	.	.	.	16cc\	.	.	.	.	.	.	.	.	.	.	.	.	.	.	.	.	.	.	.	.
8E\J	.	.	8e\J	.	16cc\	.	8gg\J	.	.	.	.	.	.	.	.	.	.	.	.	.	.	.	.	.	.
.	.	.	.	.	16cc\JJ	.	.	.	.	.	.	.	.	.	.	.	.	.	.	.	.	.	.	.	.
!	!	!	!	!	!	!	!	!	!	!	!	!	!	!	!	!LO:LB:g=original	!	!	!	!	!	!	!	!	!
=84	=84	=84	=84	=84	=84	=84	=84	=84	=84	=84	=84	=84	=84	=84	=84	=84	=84	=84	=84	=84	=84	=84	=84	=84	=84
8F\L	.	.	8f\L	.	16cc\LL	.	8gg#X\L	.	1ryy	4F\	mor-	.	4c\	mor-	.	4a\	mor-	.	4cc\	mor-	.	2f\	2a\	2aa\	4ccc\
.	.	.	.	.	16cc\	.	.	.	.	.	.	.	.	.	.	.	.	.	.	.	.	.	.	.	.
8F\	.	.	8f\	.	16cc\	.	8aa\J	.	.	.	.	.	.	.	.	.	.	.	.	.	.	.	.	.	.
.	.	.	.	.	16cc\	.	.	.	.	.	.	.	.	.	.	.	.	.	.	.	.	.	.	.	.
8F\	.	.	8f\	.	16cc\	.	4.aa\	.	.	4F\	-tu-	.	4c\	-tu-	.	4a\	-tu-	.	4cc\	-tu-	.	.	.	.	4r
.	.	.	.	.	16cc\	.	.	.	.	.	.	.	.	.	.	.	.	.	.	.	.	.	.	.	.
8F\J	.	.	8f\J	.	16cc\	.	.	.	.	.	.	.	.	.	.	.	.	.	.	.	.	.	.	.	.
.	.	.	.	.	16cc\JJ	.	.	.	.	.	.	.	.	.	.	.	.	.	.	.	.	.	.	.	.
8D/L	6\	.	8g\L	.	16ff\LL	.	.	.	.	2D/	-o-	.	2Bn\	-o-	.	2bn\	-o-	.	2ff\	-o-	.	4r	4r	4r	4r
.	.	.	.	.	16ff\	.	.	.	.	.	.	.	.	.	.	.	.	.	.	.	.	.	.	.	.
8D/	.	.	8g\	.	16ff\	.	(16bbn\LL	.	.	.	.	.	.	.	.	.	.	.	.	.	.	.	.	.	.
.	.	.	.	.	16ff\	.	16ccc\JJ)	.	.	.	.	.	.	.	.	.	.	.	.	.	.	.	.	.	.
8D/	.	.	8g\	.	16ff\	.	8bb\L	.	.	.	.	.	.	.	.	.	.	.	.	.	.	4g\	4g\	4ff\	4bbn\
.	.	.	.	.	16ff\	.	.	.	.	.	.	.	.	.	.	.	.	.	.	.	.	.	.	.	.
8D/J	.	.	8g\J	.	16ff\	.	8bb\J	.	.	.	.	.	.	.	.	.	.	.	.	.	.	.	.	.	.
.	.	.	.	.	16ff\JJ	.	.	.	.	.	.	.	.	.	.	.	.	.	.	.	.	.	.	.	.
*Xtremolo	*	*	*Xtremolo	*	*Xtremolo	*	*	*	*	*	*	*	*	*	*	*	*	*	*	*	*	*	*	*	*
!LO:LB:g=original	!	!	!	!	!	!	!	!	!	!	!	!	!	!	!	!	!	!	!	!	!	!	!LO:LB:g=original	!	!
=85	=85	=85	=85	=85	=85	=85	=85	=85	=85	=85	=85	=85	=85	=85	=85	=85	=85	=85	=85	=85	=85	=85	=85	=85	=85
*	*	*	*	*	*	*	*tremolo	*	*	*	*	*	*	*	*	*	*	*	*	*	*	*	*	*	*
4C/	.	.	4g\	.	4ee\	.	16ccc\LL	.	1ryy	4C/	-rum	.	4c\	-rum	.	4cc\	-rum	.	4ee\	-rum	.	4c/	4g\	4ee\	4ccc\
.	.	.	.	.	.	.	16ccc\	.	.	.	.	.	.	.	.	.	.	.	.	.	.	.	.	.	.
.	.	.	.	.	.	.	16ccc\	.	.	.	.	.	.	.	.	.	.	.	.	.	.	.	.	.	.
.	.	.	.	.	.	.	16ccc\JJ	.	.	.	.	.	.	.	.	.	.	.	.	.	.	.	.	.	.
4r	.	.	4r	.	4r	.	16bb-X\LL	.	.	4r	.	.	4r	.	.	4r	.	.	4r	.	.	4r	4r	4r	4bb-X\
.	.	.	.	.	.	.	16bb-X\	.	.	.	.	.	.	.	.	.	.	.	.	.	.	.	.	.	.
.	.	.	.	.	.	.	16bb-X\	.	.	.	.	.	.	.	.	.	.	.	.	.	.	.	.	.	.
.	.	.	.	.	.	.	16bb-X\JJ	.	.	.	.	.	.	.	.	.	.	.	.	.	.	.	.	.	.
4r	.	.	4r	.	4r	.	16aa\LL	.	.	4r	.	.	4r	.	.	4r	.	.	4r	.	.	2r	2r	4r	4aa\
.	.	.	.	.	.	.	16aa\	.	.	.	.	.	.	.	.	.	.	.	.	.	.	.	.	.	.
.	.	.	.	.	.	.	16aa\	.	.	.	.	.	.	.	.	.	.	.	.	.	.	.	.	.	.
.	.	.	.	.	.	.	16aa\JJ	.	.	.	.	.	.	.	.	.	.	.	.	.	.	.	.	.	.
4c\	-	.	4e-X\	.	4a/	.	16gg\LL	.	.	4c\	et	.	4A\	et	.	4g\	et	.	4een\	et	.	.	.	4ee-X\	4gg\
.	.	.	.	.	.	.	16gg\	.	.	.	.	.	.	.	.	.	.	.	.	.	.	.	.	.	.
.	.	.	.	.	.	.	16gg\	.	.	.	.	.	.	.	.	.	.	.	.	.	.	.	.	.	.
.	.	.	.	.	.	.	16gg\JJ	.	.	.	.	.	.	.	.	.	.	.	.	.	.	.	.	.	.
*	*	*	*	*	*	*	*Xtremolo	*	*	*	*	*	*	*	*	*	*	*	*	*	*	*	*	*	*
!	!	!	!	!	!	!	!	!	!	!LO:LB:g=original	!	!	!	!	!	!	!	!	!	!	!	!	!	!	!
=86	=86	=86	=86	=86	=86	=86	=86	=86	=86	=86	=86	=86	=86	=86	=86	=86	=86	=86	=86	=86	=86	=86	=86	=86	=86
*tremolo	*	*	*tremolo	*	*tremolo	*	*	*	*	*	*	*	*	*	*	*	*	*	*	*	*	*	*	*	*
8d\L	#	.	8d\L	.	16a 16d/LL	.	16ff#X\LL	.	1ryy	2d\	vi-	.	2A\	vi-	.	2f#X\	vi-	.	2dd\	vi-	.	0r	0r	1dd	1ff#X
.	.	.	.	.	16a 16d/	.	16gg\	.	.	.	.	.	.	.	.	.	.	.	.	.	.	.	.	.	.
8d\	.	.	8d\	.	16a 16d/	.	16aa\	.	.	.	.	.	.	.	.	.	.	.	.	.	.	.	.	.	.
.	.	.	.	.	16a 16d/	.	16gg\JJ	.	.	.	.	.	.	.	.	.	.	.	.	.	.	.	.	.	.
8d\	.	.	8d\	.	16a 16d/	.	16ff#\LL	.	.	.	.	.	.	.	.	.	.	.	.	.	.	.	.	.	.
.	.	.	.	.	16a 16d/	.	16gg\	.	.	.	.	.	.	.	.	.	.	.	.	.	.	.	.	.	.
8d\J	.	.	8d\J	.	16a 16d/	.	16aa\	.	.	.	.	.	.	.	.	.	.	.	.	.	.	.	.	.	.
.	.	.	.	.	16a 16d/JJ	.	16gg\JJ	.	.	.	.	.	.	.	.	.	.	.	.	.	.	.	.	.	.
!	!	!	!	!	!	!	!	!	!	!	!	!	!LO:LB:g=original	!	!	!	!	!	!	!	!	!	!	!	!
8c\L	4 2	.	8c/L	.	16a 16d/LL	.	(8ff#X\L	.	.	4c\	-tam	.	4A\	-tam	.	4f#\	-tam	.	4dd\	-tam	.	.	.	.	.
.	.	.	.	.	16a 16d/	.	.	.	.	.	.	.	.	.	.	.	.	.	.	.	.	.	.	.	.
8c\	.	.	8c/	.	16a 16d/	.	8dd\)	.	.	.	.	.	.	.	.	.	.	.	.	.	.	.	.	.	.
.	.	.	.	.	16a 16d/	.	.	.	.	.	.	.	.	.	.	.	.	.	.	.	.	.	.	.	.
8c\	.	.	8c/	.	16a 16d/	.	8ff#\|	.	.	4c\	ven-	.	4A\	ven-	.	4f#\	ven-	.	4dd\	ven-	.	.	.	.	.
.	.	.	.	.	16a 16d/	.	.	.	.	.	.	.	.	.	.	.	.	.	.	.	.	.	.	.	.
8c\J	.	.	8c/J	.	16a 16d/	.	8ff#\J|	.	.	.	.	.	.	.	.	.	.	.	.	.	.	.	.	.	.
.	.	.	.	.	16a 16d/JJ	.	.	.	.	.	.	.	.	.	.	.	.	.	.	.	.	.	.	.	.
=87	=87	=87	=87	=87	=87	=87	=87	=87	=87	=87	=87	=87	=87	=87	=87	=87	=87	=87	=87	=87	=87	=87	=87	=87	=87
8B-\L	6	.	8B-X/L	.	16b-LL 16d/	.	16gg\LL	.	1ryy	2B-X\	-tu-	.	2B-\	-tu-	.	2g\	-tu-	.	2dd\	-tu-	.	.	.	1dd	1gg
.	.	.	.	.	16b- 16d/	.	16aa\	.	.	.	.	.	.	.	.	.	.	.	.	.	.	.	.	.	.
8B-\	.	.	8B-X/	.	16b- 16d/	.	16bb-X\	.	.	.	.	.	.	.	.	.	.	.	.	.	.	.	.	.	.
.	.	.	.	.	16b- 16d/	.	16aa\JJ	.	.	.	.	.	.	.	.	.	.	.	.	.	.	.	.	.	.
!	!	!	!	!	!	!	!LO:LB:g=original	!	!	!	!	!	!	!	!	!	!	!	!	!	!	!	!	!	!
8B-\	.	.	8B-X/	.	16b- 16d/	.	16gg\LL	.	.	.	.	.	.	.	.	.	.	.	.	.	.	.	.	.	.
.	.	.	.	.	16b- 16d/	.	16aa\	.	.	.	.	.	.	.	.	.	.	.	.	.	.	.	.	.	.
8B-\J	.	.	8B-X/J	.	16b- 16d/	.	16bb-\	.	.	.	.	.	.	.	.	.	.	.	.	.	.	.	.	.	.
.	.	.	.	.	16b-JJ 16d/	.	16aa\JJ	.	.	.	.	.	.	.	.	.	.	.	.	.	.	.	.	.	.
!	!	!	!	!	!	!	!LO:TX:a:t=P:problem:mixed beam	!	!	!	!	!	!	!	!	!	!	!	!	!	!	!	!	!	!
8G\L	.	.	8G/L	.	16b-LL 16d/	.	8gg\L	.	.	2G\	-ri	.	2B-\	-ri	.	2g\	-ri	.	2dd\	-ri	.	.	.	.	.
.	.	.	.	.	16b- 16d/	.	.	.	.	.	.	.	.	.	.	.	.	.	.	.	.	.	.	.	.
8G\	.	.	8G/	.	16b- 16d/	.	8g/	.	.	.	.	.	.	.	.	.	.	.	.	.	.	.	.	.	.
.	.	.	.	.	16b- 16d/	.	.	.	.	.	.	.	.	.	.	.	.	.	.	.	.	.	.	.	.
8G\	.	.	8G/	.	16b- 16d/	.	8gg\	.	.	.	.	.	.	.	.	.	.	.	.	.	.	.	.	.	.
.	.	.	.	.	16b- 16d/	.	.	.	.	.	.	.	.	.	.	.	.	.	.	.	.	.	.	.	.
8G\J	.	.	8G/J	.	16b- 16d/	.	8gg\J	.	.	.	.	.	.	.	.	.	.	.	.	.	.	.	.	.	.
.	.	.	.	.	16b-JJ 16d/	.	.	.	.	.	.	.	.	.	.	.	.	.	.	.	.	.	.	.	.
*	*	*	*	*	*Xtremolo	*	*	*	*	*	*	*	*	*	*	*	*	*	*	*	*	*	*	*	*
!	!	!	!LO:LB:g=original	!	!	!	!	!	!	!	!	!	!	!	!	!	!	!	!	!	!	!	!	!	!
=88	=88	=88	=88	=88	=88	=88	=88	=88	=88	=88	=88	=88	=88	=88	=88	=88	=88	=88	=88	=88	=88	=88	=88	=88	=88
8c\L	.	.	8c/L	.	16g/LL	.	16een\LL	.	1ryy	2c\	Sae-	.	2c\	Sae-	.	2g\	Sae-	.	2een\	Sae-	.	4c/	4g\	1cc	1ee
.	.	.	.	.	16cc/	.	16ff\	.	.	.	.	.	.	.	.	.	.	.	.	.	.	.	.	.	.
8c\	.	.	8c/	.	16g/	.	16gg\	.	.	.	.	.	.	.	.	.	.	.	.	.	.	.	.	.	.
.	.	.	.	.	16cc/JJ	.	16ff\JJ	.	.	.	.	.	.	.	.	.	.	.	.	.	.	.	.	.	.
8c\	.	.	8c/	.	16g/LL	.	16ee\LL	.	.	.	.	.	.	.	.	.	.	.	.	.	.	8c/L	8g\L	.	.
.	.	.	.	.	16cc/	.	16ff\	.	.	.	.	.	.	.	.	.	.	.	.	.	.	.	.	.	.
8c\J	.	.	8c/J	.	16g/	.	16gg\	.	.	.	.	.	.	.	.	.	.	.	.	.	.	8c/J	8g\J	.	.
.	.	.	.	.	16cc/JJ	.	16ff\JJ	.	.	.	.	.	.	.	.	.	.	.	.	.	.	.	.	.	.
*	*	*	*	*	*tremolo	*	*	*	*	*	*	*	*	*	*	*	*	*	*	*	*	*	*	*	*
8B-\L	4 #	.	8B-/L	.	16g/LL	.	8ee\L	.	.	4B-\	-cu-	.	4c\	-cu-	.	4g\	-cu-	.	4ee\	-cu-	.	4c/	4g\	.	.
.	.	.	.	.	16cc/	.	.	.	.	.	.	.	.	.	.	.	.	.	.	.	.	.	.	.	.
8B-\	.	.	8B-/	.	16g/	.	8cc\	.	.	.	.	.	.	.	.	.	.	.	.	.	.	.	.	.	.
.	.	.	.	.	16cc/	.	.	.	.	.	.	.	.	.	.	.	.	.	.	.	.	.	.	.	.
8B-\	.	.	8B-/	.	16g/	.	8ee\	.	.	4B-\	-li	.	4c\	-li	.	4g\	-li	.	4ee\	-li	.	4c/	4g\	.	.
.	.	.	.	.	16cc/	.	.	.	.	.	.	.	.	.	.	.	.	.	.	.	.	.	.	.	.
8B-\J	.	.	8B-/J	.	16g/	.	8ee\J	.	.	.	.	.	.	.	.	.	.	.	.	.	.	.	.	.	.
.	.	.	.	.	16cc/JJ	.	.	.	.	.	.	.	.	.	.	.	.	.	.	.	.	.	.	.	.
*Xtremolo	*	*	*Xtremolo	*	*	*	*	*	*	*	*	*	*	*	*	*	*	*	*	*	*	*	*	*	*
!	!	!	!	!	!	!	!	!	!	!	!	!	!	!	!	!	!	!	!LO:LB:g=original	!	!	!	!	!	!LO:LB:g=original
=89	=89	=89	=89	=89	=89	=89	=89	=89	=89	=89	=89	=89	=89	=89	=89	=89	=89	=89	=89	=89	=89	=89	=89	=89	=89
!	!	!	!LO:TX:a:t=P:problem:mixed beam	!	!	!	!	!	!	!	!	!	!	!	!	!	!	!	!	!	!	!	!	!	!
8A\L	.	.	8A/L	.	16f/LL	.	16ff\LL	.	1ryy	2A\	a-	.	2c\	a-	.	2a\	a-	.	2ff\	a-	.	2f\	2a\	2cc\	2ff\
.	.	.	.	.	16a/	.	16gg\	.	.	.	.	.	.	.	.	.	.	.	.	.	.	.	.	.	.
8A\	.	.	8A/	.	16f/	.	16aa\	.	.	.	.	.	.	.	.	.	.	.	.	.	.	.	.	.	.
.	.	.	.	.	16a/	.	16gg\JJ	.	.	.	.	.	.	.	.	.	.	.	.	.	.	.	.	.	.
8F\	.	.	8f\	.	16f/	.	16ff\LL	.	.	.	.	.	.	.	.	.	.	.	.	.	.	.	.	.	.
.	.	.	.	.	16a/	.	16gg\	.	.	.	.	.	.	.	.	.	.	.	.	.	.	.	.	.	.
8F\J	.	.	8f\J	.	16f/	.	16aa\	.	.	.	.	.	.	.	.	.	.	.	.	.	.	.	.	.	.
.	.	.	.	.	16a/JJ	.	16gg\JJ	.	.	.	.	.	.	.	.	.	.	.	.	.	.	.	.	.	.
*tremolo	*	*	*tremolo	*	*	*	*	*	*	*	*	*	*	*	*	*	*	*	*	*	*	*	*	*	*
!	!	!	!	!	!	!	!LO:TX:a:t=P:problem:mixed beam	!	!	!	!	!	!	!	!	!	!	!	!	!	!	!	!	!	!
8D\L	.	.	8d\L	.	16f/LL	.	8ff\L	.	.	2F\	-men	.	2d\	-men	.	2a\	-men	.	2ff\	-men	.	4f\	4a\	2a/	4ff\
.	.	.	.	.	16a/	.	.	.	.	.	.	.	.	.	.	.	.	.	.	.	.	.	.	.	.
8D\	.	.	8d\	.	16f/	.	8f/	.	.	.	.	.	.	.	.	.	.	.	.	.	.	.	.	.	.
.	.	.	.	.	16a/	.	.	.	.	.	.	.	.	.	.	.	.	.	.	.	.	.	.	.	.
8D\	.	.	8d\	.	16f/	.	8ff\	.	.	.	.	.	.	.	.	.	.	.	.	.	.	4f\	4a\	.	4ff\
.	.	.	.	.	16a/	.	.	.	.	.	.	.	.	.	.	.	.	.	.	.	.	.	.	.	.
8D\J	.	.	8d\J	.	16f/	.	8ff\J	.	.	.	.	.	.	.	.	.	.	.	.	.	.	.	.	.	.
.	.	.	.	.	16a/JJ	.	.	.	.	.	.	.	.	.	.	.	.	.	.	.	.	.	.	.	.
!	!	!	!	!	!LO:LB:g=original	!	!	!	!	!	!	!	!	!	!	!	!	!	!	!	!	!	!	!	!
=90	=90	=90	=90	=90	=90	=90	=90	=90	=90	=90	=90	=90	=90	=90	=90	=90	=90	=90	=90	=90	=90	=90	=90	=90	=90
*	*	*	*	*	*	*	*	*	*	*	*ij	*	*	*	*	*	*ij	*	*	*	*	*	*	*	*
8BB-/L	6 5	.	8d\L	.	16g/LL	.	16ff\LL	.	1ryy	1C	a-	.	(2d\	a-	.	1g	a-	.	2ff\	a-	.	2g\	2g\	1g	2.ff\
.	.	.	.	.	16g/	.	16ff\	.	.	.	.	.	.	.	.	.	.	.	.	.	.	.	.	.	.
8BB-/	.	.	8d\	.	16g/	.	16ff\	.	.	.	.	.	.	.	.	.	.	.	.	.	.	.	.	.	.
.	.	.	.	.	16g/	.	16ff\JJ	.	.	.	.	.	.	.	.	.	.	.	.	.	.	.	.	.	.
*	*	*	*	*	*	*	*tremolo	*	*	*	*	*	*	*	*	*	*	*	*	*	*	*	*	*	*
8BB-/	.	.	8d\	.	16g/	.	16ff\LL	.	.	.	.	.	.	.	.	.	.	.	.	.	.	.	.	.	.
.	.	.	.	.	16g/	.	16ff\	.	.	.	.	.	.	.	.	.	.	.	.	.	.	.	.	.	.
8BB-/J	.	.	8d\J	.	16g/	.	16ff\	.	.	.	.	.	.	.	.	.	.	.	.	.	.	.	.	.	.
.	.	.	.	.	16g/JJ	.	16ff\	.	.	.	.	.	.	.	.	.	.	.	.	.	.	.	.	.	.
8C/L	5 4	.	8c\L	.	16g/LL	.	16ff\	.	.	.	.	.	2c\)	.	.	.	.	.	[4ee\	.	.	2c/	2g\	.	.
.	.	.	.	.	16g/	.	16ff\	.	.	.	.	.	.	.	.	.	.	.	.	.	.	.	.	.	.
8C/	.	.	8c\	.	16g/	.	16ff\	.	.	.	.	.	.	.	.	.	.	.	.	.	.	.	.	.	.
.	.	.	.	.	16g/	.	16ff\JJ	.	.	.	.	.	.	.	.	.	.	.	.	.	.	.	.	.	.
*	*	*	*	*	*	*	*Xtremolo	*	*	*	*	*	*	*	*	*	*	*	*	*	*	*	*	*	*
8C/	x 3	.	8c\	.	16g/	.	16ee\LL	.	.	.	.	.	.	.	.	.	.	.	4ee\]	.	.	.	.	.	4ee\
.	.	.	.	.	16g/	.	16ee\	.	.	.	.	.	.	.	.	.	.	.	.	.	.	.	.	.	.
8C/J	.	.	8c\J	.	16g/	.	16ee\	.	.	.	.	.	.	.	.	.	.	.	.	.	.	.	.	.	.
.	.	.	.	.	16g/JJ	.	16ee\JJ	.	.	.	.	.	.	.	.	.	.	.	.	.	.	.	.	.	.
*Xtremolo	*	*	*Xtremolo	*	*Xtremolo	*	*	*	*	*	*	*	*	*	*	*	*	*	*	*	*	*	*	*	*
=91	=91	=91	=91	=91	=91	=91	=91	=91	=91	=91	=91	=91	=91	=91	=91	=91	=91	=91	=91	=91	=91	=91	=91	=91	=91
*	*	*	*	*	*^	*	*^	*	*	*	*	*	*	*	*	*	*	*	*	*	*	*	*	*	*
4F\	.	.	4c\	.	4a/	4f\	.	4ff/	4a\	.	1ryy	4F\	-men	.	4c\	-men	.	4a\	-men	.	4ff\	-men.	.	4f\	4a\	4a/	4ff\
*	*	*	*	*	*	*	*	*	*	*	*	*	*Xij	*	*	*	*	*	*Xij	*	*	*	*	*	*	*	*
4F\	.	.	4c\	.	4a/	4f\	.	4ff/	4a\	.	.	4r	.	.	4r	.	.	4r	.	.	4r	.	.	4f\	4a\	4a/	4ff\
4F\	.	.	4c\	.	4a/	4f\	.	4ff/	4a\	.	.	2r	.	.	2r	.	.	2r	.	.	2r	.	.	4f\	4a\	4a/	4ff\
4r	.	.	4r	.	4r	4ryy	.	4r	4ryy	.	.	.	.	.	.	.	.	.	.	.	.	.	.	4r	4r	4r	4r
*	*	*	*	*	*v	*v	*	*	*	*	*	*	*	*	*	*	*	*	*	*	*	*	*	*	*	*	*
*	*	*	*	*	*	*	*v	*v	*	*	*	*	*	*	*	*	*	*	*	*	*	*	*	*	*	*
==	==	==	==	==	==	==	==	==	==	==	==	==	==	==	==	==	==	==	==	==	==	==	==	==	==
*-	*-	*-	*-	*-	*-	*-	*-	*-	*-	*-	*-	*-	*-	*-	*-	*-	*-	*-	*-	*-	*-	*-	*-	*-	*-
!!!system-decoration: [(g1)][(g2)][(g3)][(g4)]s13
!!!RDF**kern: < = below
!!!RDF**kern: | = vertical stroke
!!!ENC: Berenika Jozajtis
!!!END: 2020-10-01
!!!ENC: Marta Lawrence
!!!END: 2021-01-16
